; generated by PrusaSlicer 2.0.0+linux64 on 2019-07-31 at 21:08:23

; 

; external perimeters extrusion width = 0.45mm
; perimeters extrusion width = 0.45mm
; infill extrusion width = 0.56mm
; solid infill extrusion width = 0.45mm
; top infill extrusion width = 0.40mm
; first layer extrusion width = 0.40mm

M107
M190 S50 ; set bed temperature and wait for it to be reached
M104 S217 ; set temperature
G28; home all axes
G1 Z5 F5000 ; lift nozzle
; Filament gcode
M109 S217 ; set temperature and wait for it to be reached
G21 ; set units to millimeters
G90 ; use absolute coordinates
M82 ; use absolute distances for extrusion
G92 E0
G1 Z0.200 F6000.000
G1 E-2.00000 F1800.00000
G92 E0
G1 Z0.500 F6000.000
G1 X30.795 Y70.787
G1 Z0.200
G1 E2.00000 F1800.00000
G1 F1200
G1 X31.631 Y69.860 E2.03522
G1 X32.447 Y69.223 E2.06441
G1 X83.686 Y35.567 E3.79358
G1 X84.480 Y35.125 E3.81922
G1 X85.333 Y34.794 E3.84503
G1 X86.218 Y34.588 E3.87066
G1 X87.130 Y34.506 E3.89647
G1 X149.423 Y33.533 E5.65379
G1 X150.691 Y33.658 E5.68972
G1 X151.910 Y34.027 E5.72565
G1 X153.035 Y34.625 E5.76157
G1 X154.022 Y35.430 E5.79750
G1 X175.483 Y56.903 E6.65384
G1 X176.171 Y57.814 E6.68604
G1 X176.692 Y58.837 E6.71842
G1 X177.025 Y59.929 E6.75063
G1 X177.163 Y61.069 E6.78301
G1 X176.962 Y147.134 E9.21063
G1 X176.827 Y148.426 E9.24727
G1 X176.593 Y149.271 E9.27201
G1 X176.247 Y150.078 E9.29675
G1 X175.797 Y150.830 E9.32150
G1 X175.254 Y151.511 E9.34606
G1 X153.973 Y173.485 E10.20890
G1 X153.066 Y174.179 E10.24110
G1 X152.047 Y174.707 E10.27348
G1 X150.957 Y175.047 E10.30569
G1 X149.818 Y175.193 E10.33807
G1 X88.193 Y176.357 E12.07663
G1 X87.310 Y176.310 E12.10155
G1 X86.442 Y176.145 E12.12647
G1 X85.494 Y175.818 E12.15477
G1 X84.602 Y175.346 E12.18325
G1 X32.820 Y142.529 E13.91247
G1 X32.133 Y142.024 E13.93650
G1 X31.518 Y141.434 E13.96053
G1 X30.845 Y140.560 E13.99167
G1 X30.327 Y139.584 E14.02281
G1 X29.982 Y138.536 E14.05395
G1 X29.817 Y137.438 E14.08527
G1 X29.315 Y107.019 E14.94341
G1 X29.522 Y74.274 E15.86704
G1 X29.720 Y73.035 E15.90244
G1 X30.148 Y71.862 E15.93766
G1 X30.764 Y70.838 E15.97136
G1 X31.069 Y71.022 F6000.000
G1 F1200
G1 X31.880 Y70.116 E16.00564
G1 X32.645 Y69.521 E16.03298
G1 X83.882 Y35.866 E17.76210
G1 X84.632 Y35.448 E17.78633
G1 X85.439 Y35.136 E17.81074
G1 X86.282 Y34.939 E17.83514
G1 X87.137 Y34.863 E17.85937
G1 X149.426 Y33.890 E19.61655
G1 X150.622 Y34.009 E19.65044
G1 X151.778 Y34.359 E19.68451
G1 X152.838 Y34.923 E19.71841
G1 X153.774 Y35.687 E19.75248
G1 X175.208 Y57.131 E20.60767
G1 X175.867 Y58.001 E20.63846
G1 X176.360 Y58.968 E20.66908
G1 X176.678 Y60.012 E20.69988
G1 X176.807 Y61.090 E20.73049
G1 X176.605 Y147.127 E23.15730
G1 X176.478 Y148.352 E23.19206
G1 X176.257 Y149.151 E23.21543
G1 X175.931 Y149.912 E23.23880
G1 X175.506 Y150.623 E23.26216
G1 X174.985 Y151.276 E23.28570
G1 X153.724 Y173.228 E24.14773
G1 X152.866 Y173.883 E24.17818
G1 X151.901 Y174.381 E24.20879
G1 X150.870 Y174.701 E24.23924
G1 X149.799 Y174.836 E24.26969
G1 X88.187 Y176.000 E26.00788
G1 X87.353 Y175.956 E26.03142
G1 X86.528 Y175.798 E26.05513
G1 X85.635 Y175.489 E26.08178
G1 X84.794 Y175.045 E26.10860
G1 X33.017 Y142.231 E27.83767
G1 X32.359 Y141.747 E27.86069
G1 X31.775 Y141.186 E27.88354
G1 X31.140 Y140.359 E27.91295
G1 X30.650 Y139.431 E27.94253
G1 X30.326 Y138.440 E27.97194
G1 X30.173 Y137.403 E28.00153
G1 X29.672 Y107.016 E28.85876
G1 X29.878 Y74.311 E29.78127
G1 X30.063 Y73.136 E29.81482
G1 X30.469 Y72.018 E29.84838
G1 X31.038 Y71.073 E29.87949
G1 E27.87949 F1800.00000
G92 E0
G1 Z0.500 F6000.000
G1 X62.946 Y98.081
G1 Z0.200
G1 E2.00000 F1800.00000
G1 F1200
G1 X69.144 Y98.081 E2.17483
G1 X69.144 Y104.279 E2.34967
G1 X62.946 Y104.279 E2.52450
G1 X62.946 Y98.141 E2.69764
G1 X62.842 Y97.694 F6000.000
G1 E0.69764 F1800.00000
G92 E0
G1 Z0.500 F6000.000
G1 X88.662 Y72.680
G1 Z0.200
G1 E2.00000 F1800.00000
G1 F1200
G1 X93.045 Y68.297 E2.17483
G1 X97.428 Y72.680 E2.34967
G1 X93.045 Y77.063 E2.52450
G1 X88.705 Y72.722 E2.69764
G1 X88.316 Y72.480 F6000.000
G1 E0.69764 F1800.00000
G92 E0
G1 Z0.500 F6000.000
G1 X93.045 Y67.287
G1 Z0.200
G1 E2.00000 F1800.00000
G1 F1200
G1 X87.652 Y72.680 E2.21512
G1 X93.045 Y78.072 E2.43024
G1 X95.131 Y75.987 E2.51345
G1 X95.131 Y103.766 E3.29700
G1 X69.858 Y103.766 E4.00985
G1 X69.858 Y97.366 E4.19035
G1 X62.232 Y97.366 E4.40547
G1 X62.232 Y103.766 E4.58597
G1 X36.959 Y103.766 E5.29883
G1 X36.959 Y75.594 E6.09346
G1 X53.997 Y75.594 E6.57405
G1 X70.282 Y59.309 E7.22365
G1 X75.045 Y64.072 E7.41365
G1 X80.438 Y58.680 E7.62877
G1 X75.675 Y53.916 E7.81878
G1 X87.258 Y42.333 E8.28085
G1 X107.179 Y62.253 E9.07548
G1 X97.595 Y71.837 E9.45777
G1 X93.088 Y67.329 E9.63758
G1 X93.045 Y67.792 F6000.000
G1 F1200
G1 X88.157 Y72.680 E9.83256
G1 X93.045 Y77.568 E10.02754
G1 X95.488 Y75.125 E10.12499
G1 X95.488 Y104.123 E10.94293
G1 X69.501 Y104.123 E11.67593
G1 X69.501 Y97.723 E11.85642
G1 X62.589 Y97.723 E12.05140
G1 X62.589 Y104.123 E12.23190
G1 X36.602 Y104.123 E12.96490
G1 X36.602 Y75.237 E13.77968
G1 X53.850 Y75.237 E14.26616
G1 X70.282 Y58.804 E14.92166
G1 X75.045 Y63.568 E15.11167
G1 X79.933 Y58.680 E15.30664
G1 X75.170 Y53.916 E15.49665
G1 X87.258 Y41.828 E15.97887
G1 X107.684 Y62.253 E16.79364
G1 X97.595 Y72.342 E17.19608
G1 X93.088 Y67.834 E17.37589
G1 E15.37589 F1800.00000
G92 E0
G1 Z0.500 F6000.000
G1 X79.428 Y58.680
G1 Z0.200
G1 E2.00000 F1800.00000
G1 F1200
G1 X75.045 Y63.063 E2.17483
G1 X70.662 Y58.680 E2.34967
G1 X75.045 Y54.297 E2.52450
G1 X79.386 Y58.637 E2.69764
G1 X79.774 Y58.880 F6000.000
G1 E0.69764 F1800.00000
G92 E0
G1 Z0.500 F6000.000
G1 X53.702 Y74.880
G1 Z0.200
G1 E2.00000 F1800.00000
G1 F1200
G1 X87.258 Y41.323 E3.33859
G1 X108.189 Y62.253 E4.17351
G1 X95.845 Y74.597 E4.66590
G1 X95.845 Y104.480 E5.50880
G1 X36.245 Y104.480 E7.18992
G1 X36.245 Y74.880 E8.02484
G1 X53.642 Y74.880 E8.51553
G1 X54.095 Y74.950 F6000.000
G1 E6.51553 F1800.00000
G92 E0
G1 Z0.500 F6000.000
G1 X70.346 Y58.616
G1 Z0.200
G1 E2.00000 F1800.00000
G1 F1200
G1 X74.981 Y53.980 E2.09364
G1 X75.989 Y53.703 F6000.000
G1 F1200
G1 X91.145 Y68.859 E2.70066
G1 X91.399 Y68.605 E2.71082
G1 X76.356 Y53.563 E3.31329
G1 X76.610 Y53.309 E3.32345
G1 X91.652 Y68.352 E3.92592
G1 X91.906 Y68.098 E3.93608
G1 X76.863 Y53.056 E4.53855
G1 X77.117 Y52.802 E4.54871
G1 X92.159 Y67.845 E5.15119
G1 X92.413 Y67.591 E5.16134
G1 X77.371 Y52.549 E5.76382
G1 X77.624 Y52.295 E5.77397
G1 X92.666 Y67.338 E6.37645
G1 X92.920 Y67.084 E6.38660
G1 X77.878 Y52.042 E6.98908
G1 X78.131 Y51.788 E6.99923
G1 X97.723 Y71.381 E7.78395
G1 X97.977 Y71.127 E7.79410
G1 X78.385 Y51.535 E8.57881
G1 X78.638 Y51.281 E8.58897
G1 X98.230 Y70.873 E9.37368
G1 X98.484 Y70.620 E9.38384
G1 X78.892 Y51.028 E10.16855
G1 X79.145 Y50.774 E10.17871
G1 X98.737 Y70.366 E10.96342
G1 X98.991 Y70.113 E10.97358
G1 X79.399 Y50.521 E11.75829
G1 X79.652 Y50.267 E11.76845
G1 X99.244 Y69.859 E12.55316
G1 X99.498 Y69.606 E12.56331
G1 X79.906 Y50.014 E13.34803
G1 X80.159 Y49.760 E13.35818
G1 X99.751 Y69.352 E14.14290
G1 X100.005 Y69.099 E14.15305
G1 X80.413 Y49.507 E14.93777
G1 X80.666 Y49.253 E14.94792
G1 X100.258 Y68.845 E15.73264
G1 X100.512 Y68.592 E15.74279
G1 X80.920 Y49.000 E16.52751
G1 X81.173 Y48.746 E16.53766
G1 X100.766 Y68.338 E17.32237
G1 X101.019 Y68.085 E17.33253
G1 X81.427 Y48.493 E18.11724
G1 X81.680 Y48.239 E18.12740
G1 X101.273 Y67.831 E18.91211
G1 X101.526 Y67.578 E18.92227
G1 X81.934 Y47.986 E19.70698
G1 X82.187 Y47.732 E19.71714
G1 X101.780 Y67.324 E20.50185
G1 X102.033 Y67.071 E20.51201
G1 X82.441 Y47.479 E21.29672
G1 X82.694 Y47.225 E21.30687
G1 X102.287 Y66.817 E22.09159
G1 X102.540 Y66.564 E22.10174
G1 X82.948 Y46.971 E22.88646
G1 X83.201 Y46.718 E22.89661
G1 X102.794 Y66.310 E23.68133
G1 X103.047 Y66.057 E23.69148
G1 X83.455 Y46.464 E24.47620
G1 X83.709 Y46.211 E24.48635
G1 X103.301 Y65.803 E25.27107
G1 X103.554 Y65.550 E25.28122
G1 X83.962 Y45.957 E26.06594
G1 X84.216 Y45.704 E26.07609
G1 X103.808 Y65.296 E26.86080
G1 X104.061 Y65.043 E26.87096
G1 X84.469 Y45.450 E27.65567
G1 X84.723 Y45.197 E27.66583
G1 X104.315 Y64.789 E28.45054
G1 X104.568 Y64.536 E28.46070
G1 X84.976 Y44.943 E29.24541
G1 X85.230 Y44.690 E29.25557
G1 X104.822 Y64.282 E30.04028
G1 X105.075 Y64.028 E30.05044
G1 X85.483 Y44.436 E30.83515
G1 X85.737 Y44.183 E30.84530
G1 X105.329 Y63.775 E31.63002
G1 X105.582 Y63.521 E31.64017
G1 X85.990 Y43.929 E32.42489
G1 X86.244 Y43.676 E32.43504
G1 X105.836 Y63.268 E33.21976
G1 X106.089 Y63.014 E33.22991
G1 X86.497 Y43.422 E34.01463
G1 X86.751 Y43.169 E34.02478
G1 X106.343 Y62.761 E34.80950
G1 X106.596 Y62.507 E34.81965
G1 X87.004 Y42.915 E35.60437
G1 X87.258 Y42.662 E35.61452
G1 X106.964 Y62.367 E36.40379
G1 E34.40379 F1800.00000
G92 E0
G1 Z0.500 F6000.000
G1 X91.005 Y69.226
G1 Z0.200
G1 E2.00000 F1800.00000
G1 F1200
G1 X80.613 Y58.833 E2.41625
G1 X80.359 Y59.087 E2.42640
G1 X90.638 Y69.366 E2.83810
G1 X90.385 Y69.619 E2.84826
G1 X80.106 Y59.340 E3.25995
G1 X79.852 Y59.594 E3.27011
G1 X90.131 Y69.873 E3.68181
G1 X89.878 Y70.126 E3.69196
G1 X79.599 Y59.847 E4.10366
G1 X79.345 Y60.101 E4.11381
G1 X89.624 Y70.380 E4.52551
G1 X89.370 Y70.633 E4.53567
G1 X79.091 Y60.354 E4.94736
G1 X78.838 Y60.608 E4.95752
G1 X89.117 Y70.887 E5.36922
G1 X88.863 Y71.140 E5.37937
G1 X78.584 Y60.861 E5.79107
G1 X78.331 Y61.115 E5.80122
G1 X88.610 Y71.394 E6.21292
G1 X88.356 Y71.647 E6.22308
G1 X78.077 Y61.368 E6.63477
G1 X77.824 Y61.622 E6.64493
G1 X88.103 Y71.901 E7.05663
G1 X87.849 Y72.154 E7.06678
G1 X77.570 Y61.875 E7.47848
G1 X77.317 Y62.129 E7.48863
G1 X87.709 Y72.522 E7.90488
G1 E5.90488 F1800.00000
G92 E0
G1 Z0.500 F6000.000
G1 X93.203 Y78.015
G1 Z0.200
G1 E2.00000 F1800.00000
G1 F1200
G1 X94.899 Y79.711 E2.06792
G1 X94.899 Y79.204 E2.08228
G1 X93.570 Y77.875 E2.13549
G1 X93.824 Y77.622 E2.14564
G1 X94.899 Y78.697 E2.18870
G1 X94.899 Y78.190 E2.20306
G1 X94.077 Y77.368 E2.23596
G1 X94.331 Y77.115 E2.24611
G1 X94.899 Y77.683 E2.26886
G1 X94.899 Y77.176 E2.28322
G1 X94.584 Y76.861 E2.29581
G1 X94.838 Y76.608 E2.30597
G1 X95.060 Y76.829 E2.31484
G1 E0.31484 F1800.00000
G92 E0
G1 Z0.500 F6000.000
G1 X95.060 Y80.379
G1 Z0.200
G1 E2.00000 F1800.00000
G1 F1200
G1 X77.063 Y62.383 E2.72079
G1 X76.810 Y62.636 E2.73095
G1 X94.899 Y80.725 E3.45546
G1 X94.899 Y81.232 E3.46982
G1 X76.556 Y62.890 E4.20449
G1 X76.303 Y63.143 E4.21464
G1 X94.899 Y81.739 E4.95946
G1 X94.899 Y82.246 E4.97382
G1 X76.049 Y63.397 E5.72880
G1 X75.796 Y63.650 E5.73895
G1 X94.899 Y82.753 E6.50408
G1 X94.899 Y83.260 E6.51844
G1 X75.542 Y63.904 E7.29372
G1 X75.289 Y64.157 E7.30388
G1 X94.899 Y83.767 E8.08931
G1 X94.899 Y84.274 E8.10367
G1 X70.272 Y59.647 E9.09004
G1 X70.018 Y59.901 E9.10019
G1 X94.899 Y84.781 E10.09672
G1 X94.899 Y85.288 E10.11108
G1 X69.765 Y60.155 E11.11775
G1 X69.511 Y60.408 E11.12791
G1 X94.899 Y85.796 E12.14474
G1 X94.899 Y86.303 E12.15910
G1 X69.258 Y60.662 E13.18609
G1 X69.004 Y60.915 E13.19624
G1 X94.899 Y86.810 E14.23338
G1 X94.899 Y87.317 E14.24774
G1 X68.751 Y61.169 E15.29503
G1 X68.497 Y61.422 E15.30519
G1 X94.899 Y87.824 E16.36263
G1 X94.899 Y88.331 E16.37699
G1 X68.244 Y61.676 E17.44460
G1 X67.990 Y61.929 E17.45475
G1 X94.899 Y88.838 E18.53251
G1 X94.899 Y89.345 E18.54687
G1 X67.737 Y62.183 E19.63478
G1 X67.483 Y62.436 E19.64493
G1 X94.899 Y89.852 E20.74299
G1 X94.899 Y90.359 E20.75735
G1 X67.230 Y62.690 E21.86557
G1 X66.976 Y62.943 E21.87573
G1 X94.899 Y90.866 E22.99410
G1 X94.899 Y91.373 E23.00846
G1 X66.723 Y63.197 E24.13699
G1 X66.469 Y63.450 E24.14714
G1 X94.899 Y91.880 E25.28582
G1 X94.899 Y92.387 E25.30018
G1 X66.216 Y63.704 E26.44901
G1 X65.962 Y63.957 E26.45917
G1 X94.899 Y92.894 E27.61816
G1 X94.899 Y93.401 E27.63252
G1 X65.709 Y64.211 E28.80166
G1 X65.455 Y64.464 E28.81181
G1 X94.899 Y93.908 E29.99111
G1 X94.899 Y94.415 E30.00547
G1 X65.202 Y64.718 E31.19492
G1 X64.948 Y64.971 E31.20508
G1 X94.899 Y94.922 E32.40468
G1 X94.899 Y95.429 E32.41904
G1 X64.695 Y65.225 E33.62880
G1 X64.441 Y65.478 E33.63896
G1 X94.899 Y95.936 E34.85887
G1 X94.899 Y96.443 E34.87323
G1 X64.188 Y65.732 E36.10330
G1 X63.934 Y65.985 E36.11345
G1 X94.899 Y96.950 E37.35367
G1 X94.899 Y97.457 E37.36803
G1 X63.680 Y66.239 E38.61841
G1 X63.427 Y66.493 E38.62856
G1 X94.899 Y97.964 E39.88909
G1 X94.899 Y98.472 E39.90345
G1 X63.173 Y66.746 E41.17414
G1 X62.920 Y67.000 E41.18429
G1 X94.899 Y98.979 E42.46513
G1 X94.899 Y99.486 E42.47949
G1 X62.666 Y67.253 E43.77048
G1 X62.413 Y67.507 E43.78063
G1 X94.899 Y99.993 E45.08178
G1 X94.899 Y100.500 E45.09614
G1 X62.159 Y67.760 E46.40744
G1 X61.906 Y68.014 E46.41759
G1 X94.899 Y101.007 E47.73905
G1 X94.899 Y101.514 E47.75341
G1 X61.652 Y68.267 E49.08502
G1 X61.399 Y68.521 E49.09517
G1 X94.899 Y102.021 E50.43693
G1 X94.899 Y102.528 E50.45129
G1 X61.145 Y68.774 E51.80321
G1 X60.892 Y69.028 E51.81337
G1 X94.899 Y103.035 E53.17544
G1 X94.899 Y103.533 E53.18956
G1 X60.638 Y69.281 E54.56161
G1 X60.385 Y69.535 E54.57177
G1 X94.383 Y103.533 E55.93350
G1 X93.876 Y103.533 E55.94786
G1 X60.131 Y69.788 E57.29944
G1 X59.878 Y70.042 E57.30959
G1 X93.369 Y103.533 E58.65101
G1 X92.862 Y103.533 E58.66537
G1 X59.624 Y70.295 E59.99664
G1 X59.371 Y70.549 E60.00680
G1 X92.355 Y103.533 E61.32791
G1 X91.848 Y103.533 E61.34227
G1 X59.117 Y70.802 E62.65324
G1 X58.864 Y71.056 E62.66339
G1 X91.341 Y103.533 E63.96420
G1 X90.834 Y103.533 E63.97856
G1 X58.610 Y71.309 E65.26921
G1 X58.357 Y71.563 E65.27936
G1 X90.327 Y103.533 E66.55986
G1 X89.820 Y103.533 E66.57422
G1 X58.103 Y71.816 E67.84457
G1 X57.850 Y72.070 E67.85472
G1 X89.313 Y103.533 E69.11491
G1 X88.806 Y103.533 E69.12927
G1 X57.596 Y72.323 E70.37931
G1 X57.342 Y72.577 E70.38947
G1 X88.299 Y103.533 E71.62935
G1 X87.792 Y103.533 E71.64371
G1 X57.089 Y72.830 E72.87344
G1 X56.835 Y73.084 E72.88359
G1 X87.285 Y103.533 E74.10317
G1 X86.778 Y103.533 E74.11753
G1 X56.582 Y73.338 E75.32695
G1 X56.328 Y73.591 E75.33710
G1 X86.271 Y103.533 E76.53637
G1 X85.764 Y103.533 E76.55073
G1 X56.075 Y73.845 E77.73984
G1 X55.821 Y74.098 E77.74999
G1 X85.257 Y103.533 E78.92895
G1 X84.750 Y103.533 E78.94331
G1 X55.568 Y74.352 E80.11212
G1 X55.314 Y74.605 E80.12227
G1 X84.243 Y103.533 E81.28092
G1 X83.736 Y103.533 E81.29528
G1 X55.061 Y74.859 E82.44378
G1 X54.807 Y75.112 E82.45393
G1 X83.229 Y103.533 E83.59227
G1 X82.722 Y103.533 E83.60663
G1 X54.554 Y75.366 E84.73482
G1 X54.300 Y75.619 E84.74498
G1 X82.214 Y103.533 E85.86301
G1 X81.707 Y103.533 E85.87737
G1 X54.000 Y75.826 E86.98712
G1 X53.493 Y75.826 E87.00148
G1 X81.200 Y103.533 E88.11124
G1 X80.693 Y103.533 E88.12560
G1 X52.986 Y75.826 E89.23535
G1 X52.479 Y75.826 E89.24971
G1 X80.186 Y103.533 E90.35947
G1 X79.679 Y103.533 E90.37383
G1 X51.972 Y75.826 E91.48358
G1 X51.465 Y75.826 E91.49794
G1 X79.172 Y103.533 E92.60770
G1 X78.665 Y103.533 E92.62206
G1 X50.958 Y75.826 E93.73181
G1 X50.451 Y75.826 E93.74617
G1 X78.158 Y103.533 E94.85593
G1 X77.651 Y103.533 E94.87029
G1 X49.944 Y75.826 E95.98004
G1 X49.437 Y75.826 E95.99440
G1 X77.144 Y103.533 E97.10416
G1 X76.637 Y103.533 E97.11852
G1 X48.930 Y75.826 E98.22827
G1 X48.422 Y75.826 E98.24263
G1 X69.731 Y97.134 E99.09609
G1 X69.224 Y97.134 E99.11045
G1 X47.915 Y75.826 E99.96390
G1 X47.408 Y75.826 E99.97826
G1 X68.717 Y97.134 E100.83171
G1 X68.210 Y97.134 E100.84607
G1 X46.901 Y75.826 E101.69953
G1 X46.394 Y75.826 E101.71389
G1 X67.703 Y97.134 E102.56734
G1 X67.196 Y97.134 E102.58170
G1 X45.887 Y75.826 E103.43515
G1 X45.380 Y75.826 E103.44951
G1 X66.689 Y97.134 E104.30297
G1 X66.182 Y97.134 E104.31733
G1 X44.873 Y75.826 E105.17078
G1 X44.366 Y75.826 E105.18514
G1 X65.675 Y97.134 E106.03860
G1 X65.167 Y97.134 E106.05296
G1 X43.859 Y75.826 E106.90641
G1 X43.352 Y75.826 E106.92077
G1 X64.660 Y97.134 E107.77422
G1 X64.153 Y97.134 E107.78858
G1 X42.845 Y75.826 E108.64204
G1 X42.338 Y75.826 E108.65640
G1 X63.646 Y97.134 E109.50985
G1 X63.139 Y97.134 E109.52421
G1 X41.831 Y75.826 E110.37766
G1 X41.324 Y75.826 E110.39202
G1 X62.632 Y97.134 E111.24548
G1 X62.125 Y97.134 E111.25984
G1 X40.817 Y75.826 E112.11329
G1 X40.310 Y75.826 E112.12765
G1 X62.000 Y97.516 E112.99638
G1 X62.000 Y98.023 E113.01074
G1 X39.803 Y75.826 E113.89979
G1 X39.296 Y75.826 E113.91415
