; generated by PrusaSlicer 2.0.0+linux64 on 2019-08-12 at 20:37:35

; 

; external perimeters extrusion width = 0.45mm
; perimeters extrusion width = 0.45mm
; infill extrusion width = 0.56mm
; solid infill extrusion width = 0.45mm
; top infill extrusion width = 0.40mm
; first layer extrusion width = 0.40mm

M107
M190 S50 ; set bed temperature and wait for it to be reached
M104 S218 ; set temperature
G28; home all axes
G1 Z5 F5000 ; lift nozzle
; Filament gcode
M109 S218 ; set temperature and wait for it to be reached
G21 ; set units to millimeters
G90 ; use absolute coordinates
M82 ; use absolute distances for extrusion
G92 E0
G1 Z0.200 F6000.000
G1 E-2.00000 F1800.00000
G92 E0
G1 Z0.500 F6000.000
G1 X60.318 Y59.581
G1 Z0.200
G1 E2.00000 F1800.00000
G1 X62.098 Y57.907 E2.07038
G1 X63.945 Y56.315 E2.14059
G1 X66.653 Y54.214 E2.23933
G1 X68.654 Y52.821 E2.30954
G1 X70.719 Y51.513 E2.37995
G1 X73.700 Y49.834 E2.47847
G1 X75.882 Y48.748 E2.54868
G1 X78.117 Y47.756 E2.61909
G1 X81.311 Y46.530 E2.71762
G1 X83.628 Y45.775 E2.78782
G1 X85.983 Y45.119 E2.85822
G1 X89.321 Y44.373 E2.95674
G1 X91.725 Y43.965 E3.02694
G1 X94.143 Y43.661 E3.09713
G1 X97.562 Y43.410 E3.19588
G1 X100.006 Y43.357 E3.26627
G1 X102.445 Y43.410 E3.33653
G1 X105.855 Y43.661 E3.43502
G1 X108.274 Y43.965 E3.50522
G1 X110.685 Y44.375 E3.57567
G1 X114.023 Y45.121 E3.67418
G1 X116.377 Y45.777 E3.74456
G1 X119.676 Y46.885 E3.84478
G1 X121.949 Y47.783 E3.91518
G1 X124.182 Y48.779 E3.98559
G1 X127.230 Y50.332 E4.08411
G1 X129.342 Y51.550 E4.15432
G1 X131.405 Y52.861 E4.22474
G1 X134.193 Y54.843 E4.32326
G1 X136.105 Y56.356 E4.39346
G1 X137.949 Y57.949 E4.46366
G1 X140.419 Y60.318 E4.56222
G1 X142.093 Y62.098 E4.63260
G1 X143.685 Y63.944 E4.70281
G1 X145.786 Y66.653 E4.80155
G1 X147.179 Y68.654 E4.87175
G1 X148.487 Y70.719 E4.94217
G1 X150.166 Y73.700 E5.04069
G1 X151.252 Y75.882 E5.11090
G1 X152.241 Y78.109 E5.18107
G1 X153.470 Y81.311 E5.27984
G1 X154.225 Y83.628 E5.35004
G1 X154.881 Y85.983 E5.42044
G1 X155.627 Y89.321 E5.51895
G1 X156.035 Y91.725 E5.58916
G1 X156.339 Y94.143 E5.65935
G1 X156.590 Y97.555 E5.75790
G1 X156.643 Y99.999 E5.82830
G1 X156.590 Y102.445 E5.89875
G1 X156.339 Y105.855 E5.99723
G1 X156.035 Y108.274 E6.06744
G1 X155.627 Y110.676 E6.13763
G1 X154.881 Y114.017 E6.23621
G1 X154.225 Y116.371 E6.30659
G1 X153.470 Y118.689 E6.37679
G1 X152.242 Y121.889 E6.47553
G1 X151.252 Y124.117 E6.54573
G1 X150.163 Y126.306 E6.61615
G1 X148.487 Y129.281 E6.71448
G1 X147.179 Y131.345 E6.78487
G1 X145.782 Y133.352 E6.85529
G1 X143.685 Y136.055 E6.95381
G1 X142.094 Y137.901 E7.02400
G1 X140.419 Y139.682 E7.09443
G1 X137.950 Y142.050 E7.19295
G1 X136.106 Y143.644 E7.26316
G1 X134.188 Y145.161 E7.33358
G1 X131.400 Y147.142 E7.43210
G1 X129.343 Y148.450 E7.50228
G1 X127.224 Y149.671 E7.57272
G1 X124.176 Y151.224 E7.67124
G1 X121.945 Y152.219 E7.74161
G1 X119.676 Y153.115 E7.81186
G1 X116.378 Y154.223 E7.91207
G1 X114.017 Y154.881 E7.98265
G1 X110.685 Y155.625 E8.08098
G1 X108.275 Y156.035 E8.15137
G1 X105.857 Y156.339 E8.22156
G1 X102.438 Y156.590 E8.32030
G1 X100.001 Y156.643 E8.39052
G1 X97.555 Y156.590 E8.46096
G1 X94.145 Y156.339 E8.55945
G1 X91.726 Y156.035 E8.62965
G1 X89.324 Y155.627 E8.69985
G1 X85.983 Y154.881 E8.79843
G1 X83.629 Y154.225 E8.86880
G1 X81.304 Y153.468 E8.93921
G1 X78.111 Y152.242 E9.03774
G1 X75.883 Y151.252 E9.10794
G1 X73.694 Y150.163 E9.17836
G1 X70.719 Y148.487 E9.27670
G1 X68.655 Y147.179 E9.34708
G1 X66.648 Y145.782 E9.41750
G1 X63.945 Y143.685 E9.51602
G1 X62.099 Y142.094 E9.58622
G1 X60.318 Y140.419 E9.65665
G1 X57.950 Y137.950 E9.75516
G1 X56.356 Y136.106 E9.82537
G1 X54.839 Y134.188 E9.89579
G1 X52.858 Y131.400 E9.99431
G1 X51.550 Y129.343 E10.06450
G1 X50.333 Y127.231 E10.13470
G1 X48.776 Y124.176 E10.23346
G1 X47.781 Y121.945 E10.30382
G1 X46.885 Y119.676 E10.37408
G1 X45.777 Y116.378 E10.47428
G1 X45.121 Y114.024 E10.54464
G1 X44.375 Y110.685 E10.64320
G1 X43.965 Y108.275 E10.71359
G1 X43.661 Y105.857 E10.78378
G1 X43.410 Y102.438 E10.88252
G1 X43.357 Y100.001 E10.95273
G1 X43.410 Y97.555 E11.02317
G1 X43.661 Y94.145 E11.12166
G1 X43.965 Y91.726 E11.19187
G1 X44.375 Y89.315 E11.26231
G1 X45.121 Y85.977 E11.36083
G1 X45.777 Y83.623 E11.43120
G1 X46.885 Y80.324 E11.53143
G1 X47.780 Y78.057 E11.60164
G1 X48.776 Y75.825 E11.67203
G1 X50.332 Y72.770 E11.77076
G1 X51.550 Y70.658 E11.84097
G1 X52.857 Y68.601 E11.91117
G1 X54.843 Y65.807 E12.00990
G1 X56.356 Y63.895 E12.08011
G1 X57.949 Y62.051 E12.15030
G1 X60.276 Y59.624 E12.24713
G1 X60.534 Y59.872 F6000.000
G1 F1800
G1 X62.338 Y58.171 E12.31854
G1 X64.172 Y56.590 E12.38827
G1 X66.866 Y54.501 E12.48646
G1 X68.853 Y53.118 E12.55619
G1 X70.898 Y51.822 E12.62589
G1 X73.863 Y50.151 E12.72391
G1 X76.036 Y49.071 E12.79382
G1 X78.248 Y48.088 E12.86352
G1 X81.431 Y46.866 E12.96173
G1 X83.733 Y46.116 E13.03146
G1 X86.065 Y45.467 E13.10115
G1 X89.392 Y44.723 E13.19935
G1 X91.779 Y44.318 E13.26907
G1 X94.180 Y44.016 E13.33878
G1 X97.581 Y43.767 E13.43698
G1 X100.007 Y43.714 E13.50689
G1 X102.421 Y43.767 E13.57642
G1 X105.821 Y44.016 E13.67461
G1 X108.223 Y44.318 E13.74434
G1 X110.614 Y44.725 E13.81419
G1 X113.938 Y45.468 E13.91227
G1 X116.269 Y46.117 E13.98198
G1 X119.555 Y47.221 E14.08180
G1 X121.807 Y48.110 E14.15153
G1 X124.023 Y49.099 E14.22143
G1 X127.061 Y50.647 E14.31962
G1 X129.158 Y51.856 E14.38934
G1 X131.201 Y53.154 E14.45906
G1 X133.980 Y55.129 E14.55725
G1 X135.879 Y56.632 E14.62697
G1 X137.710 Y58.215 E14.69669
G1 X140.166 Y60.570 E14.79471
G1 X141.829 Y62.338 E14.86461
G1 X143.410 Y64.172 E14.93433
G1 X145.496 Y66.861 E15.03234
G1 X146.882 Y68.853 E15.10225
G1 X148.178 Y70.898 E15.17195
G1 X149.852 Y73.868 E15.27016
G1 X150.929 Y76.036 E15.33989
G1 X151.912 Y78.248 E15.40958
G1 X153.132 Y81.425 E15.50762
G1 X153.884 Y83.733 E15.57752
G1 X154.533 Y86.065 E15.64722
G1 X155.277 Y89.392 E15.74541
G1 X155.682 Y91.779 E15.81513
G1 X155.984 Y94.180 E15.88484
G1 X156.233 Y97.580 E15.98304
G1 X156.286 Y100.001 E16.05277
G1 X156.233 Y102.421 E16.12248
G1 X155.984 Y105.821 E16.22067
G1 X155.682 Y108.223 E16.29040
G1 X155.275 Y110.614 E16.36025
G1 X154.532 Y113.938 E16.45833
G1 X153.883 Y116.269 E16.52804
G1 X152.779 Y119.555 E16.62786
G1 X151.890 Y121.807 E16.69759
G1 X150.901 Y124.023 E16.76749
G1 X149.353 Y127.061 E16.86568
G1 X148.144 Y129.158 E16.93541
G1 X146.846 Y131.201 E17.00512
G1 X144.871 Y133.980 E17.10331
G1 X143.368 Y135.879 E17.17304
G1 X141.785 Y137.710 E17.24275
G1 X139.430 Y140.166 E17.34077
G1 X137.662 Y141.829 E17.41067
G1 X135.828 Y143.410 E17.48040
G1 X133.139 Y145.496 E17.57841
G1 X131.147 Y146.882 E17.64831
G1 X129.102 Y148.178 E17.71802
G1 X126.137 Y149.849 E17.81604
G1 X123.964 Y150.929 E17.88595
G1 X121.752 Y151.912 E17.95564
G1 X118.575 Y153.132 E18.05368
G1 X116.267 Y153.884 E18.12358
G1 X113.935 Y154.533 E18.19328
G1 X110.608 Y155.277 E18.29147
G1 X108.221 Y155.682 E18.36120
G1 X105.820 Y155.984 E18.43090
G1 X102.420 Y156.233 E18.52910
G1 X99.999 Y156.286 E18.59883
G1 X97.579 Y156.233 E18.66854
G1 X94.179 Y155.984 E18.76674
G1 X91.777 Y155.682 E18.83646
G1 X89.386 Y155.275 E18.90631
G1 X86.062 Y154.532 E19.00439
G1 X83.731 Y153.883 E19.07410
G1 X80.445 Y152.779 E19.17392
G1 X78.193 Y151.890 E19.24365
G1 X75.977 Y150.901 E19.31356
G1 X72.939 Y149.353 E19.41174
G1 X70.842 Y148.144 E19.48147
G1 X68.799 Y146.846 E19.55119
G1 X66.020 Y144.871 E19.64938
G1 X64.121 Y143.368 E19.71910
G1 X62.290 Y141.785 E19.78881
G1 X59.834 Y139.430 E19.88683
G1 X58.171 Y137.662 E19.95673
G1 X56.590 Y135.828 E20.02646
G1 X54.501 Y133.134 E20.12465
G1 X53.118 Y131.147 E20.19437
G1 X51.822 Y129.102 E20.26408
G1 X50.148 Y126.132 E20.36228
G1 X49.071 Y123.964 E20.43201
G1 X48.088 Y121.752 E20.50171
G1 X46.868 Y118.575 E20.59974
G1 X46.116 Y116.267 E20.66965
G1 X45.467 Y113.935 E20.73934
G1 X44.723 Y110.608 E20.83753
G1 X44.318 Y108.221 E20.90726
G1 X44.016 Y105.820 E20.97697
G1 X43.767 Y102.420 E21.07516
G1 X43.714 Y99.999 E21.14490
G1 X43.767 Y97.579 E21.21460
G1 X44.016 Y94.179 E21.31280
G1 X44.318 Y91.777 E21.38252
G1 X44.725 Y89.386 E21.45237
G1 X45.468 Y86.062 E21.55046
G1 X46.117 Y83.730 E21.62016
G1 X47.221 Y80.445 E21.71999
G1 X48.110 Y78.193 E21.78971
G1 X49.099 Y75.977 E21.85962
G1 X50.647 Y72.939 E21.95780
G1 X51.856 Y70.842 E22.02753
G1 X53.154 Y68.799 E22.09725
G1 X55.129 Y66.020 E22.19544
G1 X56.632 Y64.121 E22.26516
G1 X58.215 Y62.290 E22.33488
G1 X60.492 Y59.915 E22.42965
G1 X60.750 Y60.162 F6000.000
G1 F1800
G1 X62.579 Y58.435 E22.50209
G1 X64.395 Y56.869 E22.57116
G1 X67.074 Y54.791 E22.66881
G1 X69.047 Y53.418 E22.73805
G1 X71.083 Y52.128 E22.80746
G1 X74.037 Y50.463 E22.90511
G1 X76.184 Y49.396 E22.97417
G1 X78.387 Y48.417 E23.04358
G1 X81.552 Y47.202 E23.14124
G1 X83.838 Y46.458 E23.21048
G1 X86.153 Y45.813 E23.27970
G1 X89.462 Y45.073 E23.37734
G1 X91.833 Y44.671 E23.44659
G1 X94.219 Y44.371 E23.51584
G1 X97.599 Y44.123 E23.61347
G1 X100.009 Y44.071 E23.68289
G1 X102.407 Y44.124 E23.75197
G1 X105.794 Y44.373 E23.84977
G1 X108.179 Y44.673 E23.91901
G1 X110.646 Y45.095 E23.99109
G1 X113.852 Y45.814 E24.08574
G1 X116.174 Y46.461 E24.15514
G1 X119.434 Y47.557 E24.25420
G1 X121.670 Y48.440 E24.32345
G1 X123.866 Y49.419 E24.39269
G1 X126.892 Y50.961 E24.49050
G1 X128.970 Y52.159 E24.55957
G1 X131.004 Y53.452 E24.62898
G1 X133.767 Y55.416 E24.72663
G1 X135.652 Y56.908 E24.79587
G1 X137.471 Y58.481 E24.86512
G1 X139.914 Y60.823 E24.96258
G1 X141.561 Y62.574 E25.03182
G1 X143.131 Y64.395 E25.10107
G1 X145.209 Y67.074 E25.19871
G1 X146.582 Y69.047 E25.26795
G1 X147.872 Y71.083 E25.33737
G1 X149.537 Y74.037 E25.43502
G1 X150.607 Y76.190 E25.50426
G1 X151.581 Y78.380 E25.57330
G1 X152.796 Y81.546 E25.67097
G1 X153.541 Y83.832 E25.74021
G1 X154.187 Y86.153 E25.80961
G1 X154.927 Y89.462 E25.90725
G1 X155.328 Y91.826 E25.97632
G1 X155.628 Y94.211 E26.04555
G1 X155.877 Y97.599 E26.14337
G1 X155.929 Y100.003 E26.21262
G1 X155.876 Y102.407 E26.28188
G1 X155.628 Y105.788 E26.37950
G1 X155.328 Y108.173 E26.44874
G1 X154.925 Y110.544 E26.51801
G1 X154.186 Y113.852 E26.61565
G1 X153.541 Y116.168 E26.68488
G1 X152.443 Y119.434 E26.78411
G1 X151.560 Y121.670 E26.85336
G1 X150.581 Y123.866 E26.92260
G1 X149.042 Y126.887 E27.02024
G1 X147.841 Y128.970 E27.08948
G1 X146.552 Y130.999 E27.15872
G1 X144.588 Y133.762 E27.25636
G1 X143.092 Y135.652 E27.32578
G1 X141.520 Y137.471 E27.39503
G1 X139.177 Y139.914 E27.49249
G1 X137.426 Y141.561 E27.56173
G1 X135.605 Y143.131 E27.63098
G1 X132.926 Y145.209 E27.72862
G1 X130.953 Y146.582 E27.79786
G1 X128.923 Y147.869 E27.86709
G1 X125.969 Y149.534 E27.96475
G1 X123.816 Y150.604 E28.03399
G1 X121.620 Y151.581 E28.10321
G1 X118.454 Y152.796 E28.20088
G1 X116.168 Y153.541 E28.27012
G1 X113.847 Y154.187 E28.33952
G1 X110.538 Y154.927 E28.43716
G1 X108.167 Y155.329 E28.50640
G1 X105.789 Y155.628 E28.57546
G1 X102.401 Y155.877 E28.67328
G1 X99.997 Y155.929 E28.74253
G1 X97.593 Y155.876 E28.81179
G1 X94.212 Y155.628 E28.90941
G1 X91.827 Y155.328 E28.97865
G1 X89.456 Y154.925 E29.04792
G1 X86.148 Y154.186 E29.14556
G1 X83.832 Y153.541 E29.21479
G1 X80.566 Y152.443 E29.31402
G1 X78.330 Y151.560 E29.38327
G1 X76.134 Y150.581 E29.45251
G1 X73.108 Y149.039 E29.55032
G1 X71.030 Y147.841 E29.61939
G1 X69.001 Y146.552 E29.68863
G1 X66.233 Y144.584 E29.78645
G1 X64.352 Y143.096 E29.85552
G1 X62.529 Y141.520 E29.92494
G1 X60.086 Y139.177 E30.02240
G1 X58.435 Y137.421 E30.09182
G1 X56.869 Y135.605 E30.16089
G1 X54.791 Y132.926 E30.25854
G1 X53.418 Y130.953 E30.32777
G1 X52.131 Y128.923 E30.39700
G1 X50.466 Y125.968 E30.49466
G1 X49.396 Y123.816 E30.56391
G1 X48.419 Y121.620 E30.63312
G1 X47.204 Y118.454 E30.73079
G1 X46.459 Y116.168 E30.80003
G1 X45.813 Y113.847 E30.86943
G1 X45.073 Y110.538 E30.96707
G1 X44.671 Y108.167 E31.03632
G1 X44.372 Y105.789 E31.10537
G1 X44.123 Y102.401 E31.20319
G1 X44.071 Y99.997 E31.27244
G1 X44.124 Y97.593 E31.34170
G1 X44.372 Y94.212 E31.43932
G1 X44.672 Y91.827 E31.50857
G1 X45.075 Y89.456 E31.57782
G1 X45.814 Y86.148 E31.67547
G1 X46.459 Y83.832 E31.74470
G1 X47.557 Y80.566 E31.84393
G1 X48.440 Y78.330 E31.91318
G1 X49.422 Y76.129 E31.98258
G1 X50.961 Y73.108 E32.08023
G1 X52.159 Y71.030 E32.14930
G1 X53.448 Y69.001 E32.21854
G1 X55.412 Y66.238 E32.31618
G1 X56.904 Y64.352 E32.38543
G1 X58.481 Y62.529 E32.45485
G1 X60.709 Y60.205 E32.54756
G1 E30.54756
G92 E0
G1 Z0.500 F6000.000
G1 X129.227 Y128.261
G1 Z0.200
G1 E2.00000 F1800.00000
G1 X128.451 Y129.054 E2.03195
G1 X127.210 Y130.220 E2.08100
G1 X125.920 Y131.332 E2.13005
G1 X124.586 Y132.390 E2.17911
G1 X123.212 Y133.389 E2.22802
G1 X122.499 Y133.873 E2.25283
G1 X121.065 Y134.783 E2.30174
G1 X119.594 Y135.632 E2.35066
G1 X118.835 Y136.039 E2.37546
G1 X117.314 Y136.794 E2.42438
G1 X115.758 Y137.487 E2.47343
G1 X114.179 Y138.112 E2.52235
G1 X113.369 Y138.404 E2.54715
G1 X111.753 Y138.929 E2.59607
G1 X110.113 Y139.387 E2.64512
G1 X108.459 Y139.775 E2.69404
G1 X107.615 Y139.945 E2.71884
G1 X105.940 Y140.228 E2.76776
G1 X104.251 Y140.442 E2.81681
G1 X102.553 Y140.584 E2.86586
G1 X100.856 Y140.655 E2.91478
G1 X99.144 Y140.655 E2.96411
G1 X97.447 Y140.584 E3.01303
G1 X95.749 Y140.442 E3.06208
G1 X94.060 Y140.228 E3.11113
G1 X92.391 Y139.946 E3.15989
G1 X91.541 Y139.775 E3.18485
G1 X89.887 Y139.387 E3.23377
G1 X88.247 Y138.929 E3.28282
G1 X86.631 Y138.404 E3.33174
G1 X85.821 Y138.112 E3.35654
G1 X84.242 Y137.487 E3.40546
G1 X82.686 Y136.794 E3.45451
G1 X81.165 Y136.039 E3.50343
G1 X80.406 Y135.632 E3.52823
G1 X78.939 Y134.785 E3.57701
G1 X78.207 Y134.331 E3.60181
G1 X76.792 Y133.392 E3.65073
G1 X75.414 Y132.390 E3.69978
G1 X74.088 Y131.339 E3.74854
G1 X73.426 Y130.780 E3.77350
G1 X72.163 Y129.643 E3.82242
G1 X70.946 Y128.451 E3.87147
G1 X69.780 Y127.210 E3.92053
G1 X68.664 Y125.916 E3.96974
G1 X67.613 Y124.589 E4.01850
G1 X67.099 Y123.898 E4.04330
G1 X66.130 Y122.503 E4.09221
G1 X65.217 Y121.065 E4.14127
G1 X64.368 Y119.594 E4.19018
G1 X63.961 Y118.835 E4.21499
G1 X63.206 Y117.314 E4.26391
G1 X62.511 Y115.753 E4.31312
G1 X61.888 Y114.179 E4.36188
G1 X61.596 Y113.369 E4.38668
G1 X61.071 Y111.753 E4.43559
G1 X60.614 Y110.117 E4.48451
G1 X60.409 Y109.281 E4.50931
G1 X60.056 Y107.620 E4.55823
G1 X59.773 Y105.945 E4.60714
G1 X59.656 Y105.092 E4.63195
G1 X59.478 Y103.403 E4.68086
G1 X59.371 Y101.703 E4.72992
G1 X59.336 Y100.005 E4.77883
G1 X59.345 Y99.144 E4.80364
G1 X59.416 Y97.447 E4.85255
G1 X59.558 Y95.749 E4.90161
G1 X59.772 Y94.060 E4.95066
G1 X60.055 Y92.385 E4.99958
G1 X60.225 Y91.541 E5.02438
G1 X60.613 Y89.887 E5.07330
G1 X61.071 Y88.247 E5.12235
G1 X61.596 Y86.631 E5.17126
G1 X61.888 Y85.821 E5.19607
G1 X62.513 Y84.242 E5.24498
G1 X63.206 Y82.686 E5.29404
G1 X63.961 Y81.165 E5.34295
G1 X64.368 Y80.406 E5.36776
G1 X65.217 Y78.935 E5.41668
G1 X66.127 Y77.501 E5.46559
G1 X66.611 Y76.788 E5.49039
G1 X67.610 Y75.414 E5.53931
G1 X68.668 Y74.080 E5.58836
G1 X69.780 Y72.790 E5.63742
G1 X70.946 Y71.549 E5.68647
G1 X72.163 Y70.357 E5.73552
G1 X73.425 Y69.220 E5.78444
G1 X74.083 Y68.665 E5.80924
G1 X75.414 Y67.610 E5.85816
G1 X76.792 Y66.608 E5.90721
G1 X78.207 Y65.669 E5.95613
G1 X78.939 Y65.215 E5.98093
G1 X80.406 Y64.368 E6.02971
G1 X81.165 Y63.961 E6.05452
G1 X82.686 Y63.206 E6.10343
G1 X84.242 Y62.513 E6.15249
G1 X85.821 Y61.888 E6.20140
G1 X86.631 Y61.596 E6.22621
G1 X88.247 Y61.071 E6.27512
G1 X89.887 Y60.613 E6.32417
G1 X91.541 Y60.225 E6.37309
G1 X92.385 Y60.055 E6.39789
G1 X94.060 Y59.772 E6.44681
G1 X95.749 Y59.558 E6.49586
G1 X97.447 Y59.416 E6.54492
G1 X99.144 Y59.345 E6.59383
G1 X99.999 Y59.336 E6.61848
G1 X101.703 Y59.371 E6.66755
G1 X103.403 Y59.478 E6.71660
G1 X105.092 Y59.656 E6.76552
G1 X105.945 Y59.773 E6.79033
G1 X107.620 Y60.056 E6.83924
G1 X109.281 Y60.409 E6.88816
G1 X110.117 Y60.614 E6.91296
G1 X111.753 Y61.071 E6.96188
G1 X113.373 Y61.598 E7.01093
G1 X114.965 Y62.190 E7.05985
G1 X115.762 Y62.515 E7.08465
G1 X117.314 Y63.206 E7.13356
G1 X118.840 Y63.963 E7.18262
G1 X120.328 Y64.781 E7.23154
G1 X121.069 Y65.220 E7.25634
G1 X122.499 Y66.127 E7.30509
G1 X123.902 Y67.102 E7.35431
G1 X125.259 Y68.132 E7.40336
G1 X126.571 Y69.217 E7.45241
