;FLAVOR:RepRap
;TIME:117
M190 S50.000000
M104 S210.000000
M109 S210.000000
M109 S210.000000
M109 S210.000000
G21 ;metric values
G90 ;absolute positioning
M82 ;set extruder to absolute mode
M107 ;start with the fan off
G28 X0 Y0 ;move X/Y to min endstops
G28 Z0 ;move Z to min endstops
G1 Z15.0 F9000 ;move the platform down 15mm
G92 E0 ;zero the extruded length
G1 F200 E3 ;extrude 3mm of feed stock
G92 E0 ;zero the extruded length again
G1 F9000
;Put printing message on LCD screen
M117 Printing...
;Generated with Cura_SteamEngine master
;LAYER_COUNT:17
;LAYER:0
M107
G1 F1500.000000 E-2.00000
G0 F7200.00000 X95.971 Y95.987 Z0.350
G0 X95.922 Y96.037
;TYPE:SKIRT
G1 F1500.000 E0.00000
G1 F1800.00000 X95.971 Y95.987 E0.00407
G1 X96.164 Y95.801 E0.01968
G1 X96.371 Y95.620 E0.03568
G1 X96.576 Y95.458 E0.05089
G1 X96.860 Y95.256 E0.07117
G1 X96.996 Y95.170 E0.08054
G1 X97.173 Y95.065 E0.09252
G1 X97.329 Y94.978 E0.10292
G1 X97.420 Y94.931 E0.10888
G1 X97.594 Y94.846 E0.12015
G1 X97.657 Y94.817 E0.12418
G1 X97.921 Y94.706 E0.14085
G1 X98.200 Y94.605 E0.15812
G1 X98.470 Y94.521 E0.17458
G1 X98.696 Y94.464 E0.18815
G1 X98.774 Y94.446 E0.19281
G1 X99.048 Y94.391 E0.20908
G1 X99.330 Y94.351 E0.22565
G1 X99.623 Y94.324 E0.24278
G1 X99.928 Y94.312 E0.26055
G1 X99.938 Y94.312 E0.26113
G1 X100.223 Y94.316 E0.27772
G1 X100.250 Y94.317 E0.27929
G1 X100.549 Y94.338 E0.29674
G1 X100.847 Y94.374 E0.31421
G1 X101.119 Y94.422 E0.33028
G1 X101.413 Y94.490 E0.34785
G1 X101.715 Y94.575 E0.36611
G1 X102.372 Y94.781 E0.40619
G1 X103.670 Y95.205 E0.48567
G1 X106.382 Y96.007 E0.65028
G1 X109.116 Y96.733 E0.81492
G1 X111.869 Y97.380 E0.97953
G1 X114.639 Y97.950 E1.14414
G1 X117.425 Y98.441 E1.30879
G1 X120.223 Y98.853 E1.47341
G1 X123.032 Y99.185 E1.63804
G1 X125.849 Y99.438 E1.80267
G1 X128.672 Y99.612 E1.96729
G1 X131.499 Y99.705 E2.13193
G1 X134.327 Y99.719 E2.29654
G1 X137.154 Y99.652 E2.46113
G1 X139.979 Y99.506 E2.62578
G1 X142.798 Y99.279 E2.79039
G1 X145.610 Y98.973 E2.95503
G1 X148.412 Y98.588 E3.11965
G1 X151.202 Y98.124 E3.28427
G1 X153.322 Y97.709 E3.41001
G1 X153.488 Y97.676 E3.41986
G1 X153.978 Y97.580 E3.44893
G1 X154.043 Y97.565 E3.45281
G1 X154.768 Y97.421 E3.49583
G1 X155.045 Y97.381 E3.51212
G1 X155.337 Y97.355 E3.52919
G1 X155.414 Y97.350 E3.53368
G1 X155.649 Y97.342 E3.54736
G1 X155.971 Y97.346 E3.56611
G1 X156.169 Y97.359 E3.57766
G1 X156.311 Y97.373 E3.58596
G1 X156.564 Y97.403 E3.60079
G1 X156.840 Y97.452 E3.61711
G1 X157.134 Y97.520 E3.63467
G1 X157.413 Y97.599 E3.65155
G1 X157.703 Y97.698 E3.66938
G1 X157.970 Y97.805 E3.68613
G1 X158.238 Y97.928 E3.70329
G1 X158.441 Y98.034 E3.71662
G1 X158.538 Y98.089 E3.72311
G1 X158.737 Y98.207 E3.73658
G1 X158.806 Y98.251 E3.74134
G1 X159.012 Y98.389 E3.75577
G1 X159.253 Y98.571 E3.77335
G1 X159.470 Y98.753 E3.78983
G1 X159.486 Y98.767 E3.79107
G1 X159.684 Y98.952 E3.80684
G1 X159.734 Y99.001 E3.81092
G1 X159.920 Y99.194 E3.82652
G1 X160.101 Y99.401 E3.84252
G1 X160.268 Y99.612 E3.85819
G1 X160.271 Y99.615 E3.85843
G1 X160.441 Y99.855 E3.87555
G1 X160.453 Y99.872 E3.87676
G1 X160.614 Y100.127 E3.89432
G1 X160.624 Y100.144 E3.89546
G1 X160.741 Y100.354 E3.90946
G1 X160.783 Y100.434 E3.91472
G1 X160.858 Y100.587 E3.92463
G1 X160.908 Y100.698 E3.93172
G1 X161.017 Y100.957 E3.94808
G1 X161.116 Y101.231 E3.96503
G1 X161.200 Y101.505 E3.98171
G1 X161.275 Y101.805 E3.99971
G1 X161.331 Y102.091 E4.01668
G1 X161.372 Y102.383 E4.03384
G1 X161.399 Y102.689 E4.05172
G1 X161.410 Y102.956 E4.06727
G1 X161.407 Y103.189 E4.08083
G1 X161.399 Y103.366 E4.09115
G1 X161.384 Y103.569 E4.10300
G1 X161.383 Y103.586 E4.10399
G1 X161.344 Y103.896 E4.12217
G1 X161.298 Y104.153 E4.13737
G1 X161.226 Y104.466 E4.15606
G1 X161.154 Y104.719 E4.17137
G1 X161.056 Y105.006 E4.18903
G1 X160.946 Y105.280 E4.20621
G1 X160.823 Y105.548 E4.22337
G1 X160.717 Y105.750 E4.23665
G1 X160.662 Y105.848 E4.24319
G1 X160.544 Y106.047 E4.25666
G1 X160.500 Y106.116 E4.26142
G1 X160.362 Y106.322 E4.27585
G1 X160.180 Y106.563 E4.29343
G1 X159.986 Y106.795 E4.31104
G1 X159.787 Y107.010 E4.32809
G1 X159.599 Y107.193 E4.34336
G1 X159.585 Y107.206 E4.34447
G1 X159.349 Y107.412 E4.36270
G1 X159.132 Y107.583 E4.37878
G1 X158.868 Y107.771 E4.39765
G1 X158.732 Y107.856 E4.40698
G1 X158.548 Y107.966 E4.41946
G1 X158.399 Y108.049 E4.42939
G1 X158.301 Y108.100 E4.43582
G1 X158.127 Y108.185 E4.44709
G1 X158.064 Y108.214 E4.45113
G1 X157.800 Y108.325 E4.46780
G1 X157.521 Y108.426 E4.48507
G1 X157.251 Y108.510 E4.50153
G1 X157.031 Y108.566 E4.51474
G1 X156.947 Y108.585 E4.51975
G1 X156.673 Y108.640 E4.53602
G1 X156.391 Y108.680 E4.55260
G1 X156.098 Y108.707 E4.56972
G1 X155.793 Y108.719 E4.58749
G1 X155.783 Y108.719 E4.58807
G1 X155.527 Y108.716 E4.60297
G1 X155.421 Y108.711 E4.60915
G1 X155.186 Y108.695 E4.62286
G1 X154.871 Y108.657 E4.64133
G1 X154.601 Y108.609 E4.65729
G1 X153.275 Y108.304 E4.73648
G1 X152.200 Y108.045 E4.80084
G1 X149.433 Y107.459 E4.96547
G1 X146.651 Y106.952 E5.13006
G1 X143.855 Y106.524 E5.29470
G1 X141.048 Y106.176 E5.45934
G1 X138.233 Y105.906 E5.62393
G1 X135.411 Y105.717 E5.78856
G1 X132.584 Y105.607 E5.95323
G1 X129.756 Y105.578 E6.11784
G1 X126.928 Y105.628 E6.28247
G1 X124.103 Y105.758 E6.44708
G1 X121.282 Y105.968 E6.61173
G1 X118.469 Y106.258 E6.77633
G1 X115.665 Y106.628 E6.94095
G1 X112.872 Y107.076 E7.10559
G1 X110.093 Y107.603 E7.27023
G1 X107.331 Y108.209 E7.43482
G1 X104.586 Y108.892 E7.59946
G1 X101.862 Y109.653 E7.76408
G1 X99.160 Y110.491 E7.92874
G1 X96.484 Y111.404 E8.09332
G1 X93.834 Y112.393 E8.25795
G1 X91.213 Y113.457 E8.42260
G1 X88.623 Y114.594 E8.58724
G1 X86.067 Y115.804 E8.75184
G1 X83.546 Y117.086 E8.91646
G1 X81.062 Y118.439 E9.08110
G1 X78.617 Y119.861 E9.24573
G1 X76.214 Y121.352 E9.41033
G1 X73.853 Y122.910 E9.57498
G1 X71.538 Y124.534 E9.73957
G1 X69.269 Y126.224 E9.90424
G1 X67.049 Y127.976 E10.06885
G1 X64.880 Y129.791 E10.23347
G1 X62.763 Y131.667 E10.39811
G1 X60.700 Y133.601 E10.56270
G1 X58.470 Y135.821 E10.74585
G1 X58.285 Y136.011 E10.76129
G1 X58.114 Y136.177 E10.77516
G1 X58.065 Y136.222 E10.77903
G1 X57.850 Y136.410 E10.79565
G1 X57.621 Y136.590 E10.81261
G1 X57.385 Y136.756 E10.82940
G1 X57.118 Y136.924 E10.84776
G1 X56.881 Y137.057 E10.86358
G1 X56.697 Y137.147 E10.87550
G1 X56.508 Y137.234 E10.88761
G1 X56.378 Y137.289 E10.89583
G1 X56.235 Y137.345 E10.90477
G1 X56.011 Y137.425 E10.91861
G1 X55.745 Y137.507 E10.93482
G1 X55.528 Y137.562 E10.94785
G1 X55.450 Y137.580 E10.95250
G1 X55.176 Y137.635 E10.96877
G1 X54.894 Y137.675 E10.98535
G1 X54.579 Y137.704 E11.00376
G1 X54.310 Y137.715 E11.01943
G1 X54.000 Y137.710 E11.03748
G1 X53.973 Y137.709 E11.03905
G1 X53.677 Y137.689 E11.05632
G1 X53.660 Y137.687 E11.05731
G1 X53.379 Y137.652 E11.07380
G1 X53.119 Y137.607 E11.08915
G1 X52.801 Y137.534 E11.10815
G1 X52.524 Y137.455 E11.12491
G1 X52.254 Y137.364 E11.14150
G1 X52.049 Y137.283 E11.15433
G1 X51.930 Y137.232 E11.16186
G1 X51.699 Y137.125 E11.17668
G1 X51.428 Y136.982 E11.19451
G1 X51.177 Y136.831 E11.21156
G1 X50.933 Y136.667 E11.22868
G1 X50.685 Y136.482 E11.24668
G1 X50.508 Y136.335 E11.26008
G1 X50.483 Y136.313 E11.26201
G1 X50.265 Y136.112 E11.27927
G1 X50.202 Y136.051 E11.28438
G1 X50.079 Y135.924 E11.29467
G1 X50.026 Y135.867 E11.29920
G1 X49.824 Y135.634 E11.31715
G1 X49.656 Y135.419 E11.33303
G1 X49.486 Y135.178 E11.35019
G1 X49.338 Y134.944 E11.36631
G1 X49.191 Y134.682 E11.38380
G1 X49.054 Y134.403 E11.40189
G1 X49.054 Y134.402 E11.40195
G1 X48.948 Y134.156 E11.41754
G1 X48.916 Y134.074 E11.42266
G1 X48.828 Y133.830 E11.43776
G1 X48.747 Y133.566 E11.45383
G1 X48.675 Y133.285 E11.47072
G1 X48.613 Y132.968 E11.48952
G1 X48.574 Y132.696 E11.50551
G1 X48.547 Y132.403 E11.52264
G1 X48.535 Y132.093 E11.54069
G1 X48.538 Y131.832 E11.55589
G1 X48.543 Y131.726 E11.56206
G1 X48.559 Y131.491 E11.57577
G1 X48.597 Y131.176 E11.59424
G1 X48.645 Y130.906 E11.61020
G1 X48.713 Y130.610 E11.62788
G1 X48.794 Y130.326 E11.64507
G1 X48.886 Y130.055 E11.66173
G1 X48.992 Y129.788 E11.67845
G1 X48.998 Y129.775 E11.67928
G1 X49.121 Y129.508 E11.69639
G1 X49.126 Y129.498 E11.69704
G1 X49.264 Y129.237 E11.71423
G1 X49.419 Y128.978 E11.73179
G1 X49.574 Y128.746 E11.74804
G1 X49.765 Y128.491 E11.76658
G1 X49.893 Y128.337 E11.77823
G1 X50.004 Y128.211 E11.78801
G1 X50.157 Y128.048 E11.80102
G1 X50.187 Y128.017 E11.80353
G1 X50.376 Y127.835 E11.81880
G1 X50.599 Y127.641 E11.83601
G1 X50.826 Y127.462 E11.85283
G1 X51.089 Y127.276 E11.87158
G1 X51.091 Y127.275 E11.87171
G1 X51.308 Y127.139 E11.88662
G1 X51.565 Y126.996 E11.90374
G1 X51.783 Y126.888 E11.91790
G1 X51.891 Y126.838 E11.92483
G1 X52.122 Y126.740 E11.93943
G1 X52.213 Y126.704 E11.94513
G1 X52.616 Y126.559 E11.97006
G1 X55.263 Y125.562 E12.13469
G1 X57.880 Y124.490 E12.29930
G1 X60.466 Y123.344 E12.46394
G1 X63.019 Y122.126 E12.62858
G1 X65.536 Y120.837 E12.79318
G1 X68.016 Y119.476 E12.95783
G1 X70.456 Y118.046 E13.12245
G1 X72.855 Y116.548 E13.28707
G1 X75.210 Y114.982 E13.45168
G1 X77.521 Y113.350 E13.61635
G1 X79.784 Y111.654 E13.78096
G1 X81.998 Y109.894 E13.94558
G1 X84.162 Y108.073 E14.11020
G1 X86.273 Y106.191 E14.27481
G1 X88.330 Y104.250 E14.43943
G1 X90.332 Y102.251 E14.60410
G1 X92.276 Y100.197 E14.76870
G1 X94.161 Y98.089 E14.93330
G1 X95.353 Y96.691 E15.04024
G1 X95.699 Y96.278 E15.07160
G1 X95.737 Y96.235 E15.07494
G1 X95.922 Y96.037 E15.09071
G1 F1500.00000 E13.09071
G0 F7200.00000 X100.436 Y95.983
G0 X101.250 Y96.157
G0 X102.020 Y96.499
G0 X102.377 Y96.733
G0 X102.349 Y96.789
G0 X151.783 Y102.582
G0 X153.833 Y102.823
G0 X153.872 Y102.827
G0 X153.932 Y102.833
G0 X153.833 Y102.823
;TYPE:WALL-INNER
G1 F1500.000 E15.09071
G1 F1800.00000 X153.864 Y102.632 E15.10197
G1 X153.914 Y102.447 E15.11313
G1 X153.990 Y102.249 E15.12547
G1 X154.076 Y102.080 E15.13651
G1 X154.181 Y101.918 E15.14774
G1 X154.312 Y101.758 E15.15978
G1 X154.459 Y101.613 E15.17180
G1 X154.604 Y101.494 E15.18272
G1 X154.778 Y101.381 E15.19479
G1 X154.935 Y101.302 E15.20502
G1 X155.145 Y101.222 E15.21810
G1 X155.322 Y101.174 E15.22878
G1 X155.529 Y101.141 E15.24098
G1 X155.720 Y101.132 E15.25211
G1 X155.930 Y101.143 E15.26435
G1 X156.117 Y101.173 E15.27537
G1 X156.300 Y101.222 E15.28640
G1 X156.492 Y101.296 E15.29837
G1 X156.681 Y101.392 E15.31071
G1 X156.831 Y101.489 E15.32111
G1 X156.988 Y101.618 E15.33294
G1 X157.138 Y101.768 E15.34528
G1 X157.257 Y101.914 E15.35625
G1 X157.369 Y102.087 E15.36824
G1 X157.450 Y102.246 E15.37863
G1 X157.528 Y102.451 E15.39140
G1 X157.577 Y102.639 E15.40270
G1 X157.610 Y102.845 E15.41485
G1 X157.619 Y103.039 E15.42615
G1 X157.609 Y103.241 E15.43792
G1 X157.579 Y103.423 E15.44866
G1 X157.527 Y103.614 E15.46018
G1 X157.455 Y103.802 E15.47190
G1 X157.359 Y103.991 E15.48424
G1 X157.262 Y104.141 E15.49463
G1 X157.128 Y104.306 E15.50701
G1 X156.996 Y104.438 E15.51787
G1 X156.831 Y104.572 E15.53024
G1 X156.677 Y104.672 E15.54093
G1 X156.499 Y104.762 E15.55254
G1 X156.295 Y104.839 E15.56523
G1 X156.119 Y104.887 E15.57585
G1 X155.913 Y104.920 E15.58799
G1 X155.724 Y104.929 E15.59901
G1 X155.511 Y104.918 E15.61142
G1 X155.324 Y104.888 E15.62244
G1 X155.138 Y104.838 E15.63366
G1 X154.939 Y104.762 E15.64605
G1 X154.778 Y104.680 E15.65657
G1 X154.601 Y104.565 E15.66886
G1 X154.446 Y104.439 E15.68048
G1 X154.313 Y104.306 E15.69143
G1 X154.190 Y104.154 E15.70281
G1 X154.073 Y103.973 E15.71536
G1 X153.987 Y103.804 E15.72639
G1 X153.913 Y103.614 E15.73826
G1 X153.864 Y103.428 E15.74946
G1 X153.831 Y103.225 E15.76143
G1 X153.822 Y103.030 E15.77279
G1 X153.833 Y102.823 E15.78486
G0 F7200.00000 X153.422 Y103.031
;TYPE:WALL-OUTER
G1 F1800.000 X153.435 Y102.774 E15.79983
G1 X153.471 Y102.552 E15.81292
G1 X153.534 Y102.319 E15.82697
G1 X153.622 Y102.092 E15.84114
G1 X153.730 Y101.879 E15.85504
G1 X153.860 Y101.679 E15.86893
G1 X154.009 Y101.495 E15.88271
G1 X154.193 Y101.313 E15.89777
G1 X154.365 Y101.173 E15.91068
G1 X154.577 Y101.035 E15.92540
G1 X154.780 Y100.932 E15.93865
G1 X155.021 Y100.841 E15.95365
G1 X155.238 Y100.782 E15.96674
G1 X155.481 Y100.743 E15.98106
G1 X155.721 Y100.732 E15.99505
G1 X155.977 Y100.745 E16.00997
G1 X156.195 Y100.780 E16.02282
G1 X156.426 Y100.842 E16.03674
G1 X156.656 Y100.931 E16.05109
G1 X156.878 Y101.043 E16.06557
G1 X157.069 Y101.167 E16.07882
G1 X157.256 Y101.319 E16.09285
G1 X157.438 Y101.503 E16.10791
G1 X157.578 Y101.675 E16.12082
G1 X157.718 Y101.890 E16.13575
G1 X157.817 Y102.086 E16.14853
G1 X157.910 Y102.330 E16.16373
G1 X157.969 Y102.552 E16.17710
G1 X158.008 Y102.801 E16.19177
G1 X158.020 Y103.041 E16.20576
G1 X158.007 Y103.282 E16.21981
G1 X157.969 Y103.515 E16.23355
G1 X157.909 Y103.736 E16.24688
G1 X157.820 Y103.966 E16.26123
G1 X157.708 Y104.188 E16.27570
G1 X157.583 Y104.380 E16.28904
G1 X157.427 Y104.572 E16.30344
G1 X157.262 Y104.737 E16.31702
G1 X157.070 Y104.893 E16.33142
G1 X156.878 Y105.018 E16.34475
G1 X156.653 Y105.132 E16.35944
G1 X156.420 Y105.220 E16.37393
G1 X156.203 Y105.279 E16.38702
G1 X155.960 Y105.318 E16.40135
G1 X155.721 Y105.330 E16.41527
G1 X155.464 Y105.316 E16.43026
G1 X155.246 Y105.281 E16.44311
G1 X155.015 Y105.219 E16.45703
G1 X154.776 Y105.127 E16.47193
G1 X154.577 Y105.026 E16.48492
G1 X154.362 Y104.886 E16.49986
G1 X154.179 Y104.737 E16.51359
G1 X154.014 Y104.572 E16.52717
G1 X153.863 Y104.386 E16.54112
G1 X153.728 Y104.178 E16.55555
G1 X153.622 Y103.970 E16.56914
G1 X153.532 Y103.736 E16.58373
G1 X153.471 Y103.508 E16.59747
G1 X153.433 Y103.270 E16.61150
G1 X153.422 Y103.031 E16.62542
G0 F7200.00000 X153.983 Y103.071
;TYPE:SKIN
G1 F1800.000 X155.678 Y104.766 E16.76495
G0 X155.748 Y104.836
G0 F7200.000 X156.180 Y104.702
G1 F1800.000 X154.046 Y102.568 E16.94061
G0 X153.976 Y102.498
G0 F7200.000 X154.210 Y102.167
G1 F1800.000 X156.583 Y104.540 E17.13594
G0 X156.653 Y104.610
G0 F7200.000 X156.908 Y104.299
G1 F1800.000 X154.451 Y101.843 E17.33815
G0 X154.381 Y101.773
G0 F7200.000 X154.758 Y101.584
G1 F1800.000 X157.167 Y103.992 E17.53640
G0 X157.237 Y104.062
G0 F7200.000 X157.354 Y103.614
G1 F1800.000 X155.137 Y101.396 E17.71893
G0 X155.067 Y101.326
G0 F7200.000 X155.603 Y101.297
G1 F1800.000 X157.452 Y103.147 E17.87117
G0 X157.522 Y103.217
G0 F7200.000 X157.375 Y102.503
G1 F1800.000 X156.244 Y101.372 E17.96427
G0 X156.174 Y101.302
G0 F7200.000 X154.181 Y103.835
G1 F1800.000 X154.919 Y104.573 E18.02502
G0 X154.989 Y104.643
G0 F7200.000 X155.113 Y104.401
G1 F1500.000 E16.02502
G0 F7200.00000 X153.951 Y103.602
G0 X153.913 Y103.614
G0 X151.931 Y104.177
G0 X58.012 Y130.884
G0 X56.032 Y131.448
G0 X55.994 Y131.460
G0 X55.937 Y131.478
G0 X56.032 Y131.448
;TYPE:WALL-INNER
G1 F1500.000 E18.02502
G1 F1800.00000 X56.080 Y131.631 E18.03603
G1 X56.113 Y131.840 E18.04835
G1 X56.122 Y132.034 E18.05965
G1 X56.112 Y132.227 E18.07090
G1 X56.079 Y132.427 E18.08270
G1 X56.029 Y132.613 E18.09391
G1 X55.958 Y132.798 E18.10544
G1 X55.871 Y132.969 E18.11661
G1 X55.759 Y133.142 E18.12861
G1 X55.625 Y133.308 E18.14102
G1 X55.501 Y133.432 E18.15123
G1 X55.339 Y133.563 E18.16336
G1 X55.168 Y133.673 E18.17519
G1 X54.996 Y133.761 E18.18644
G1 X54.811 Y133.830 E18.19793
G1 X54.622 Y133.882 E18.20934
G1 X54.416 Y133.915 E18.22148
G1 X54.226 Y133.924 E18.23255
G1 X54.014 Y133.913 E18.24491
G1 X53.828 Y133.883 E18.25588
G1 X53.641 Y133.833 E18.26714
G1 X53.442 Y133.758 E18.27952
G1 X53.273 Y133.672 E18.29056
G1 X53.114 Y133.568 E18.30162
G1 X52.945 Y133.431 E18.31428
G1 X52.818 Y133.304 E18.32473
G1 X52.681 Y133.135 E18.33740
G1 X52.577 Y132.976 E18.34845
G1 X52.491 Y132.807 E18.35949
G1 X52.415 Y132.606 E18.37200
G1 X52.367 Y132.424 E18.38295
G1 X52.334 Y132.219 E18.39504
G1 X52.325 Y132.026 E18.40629
G1 X52.337 Y131.803 E18.41928
G1 X52.365 Y131.635 E18.42920
G1 X52.416 Y131.442 E18.44082
G1 X52.489 Y131.249 E18.45283
G1 X52.578 Y131.077 E18.46410
G1 X52.682 Y130.916 E18.47526
G1 X52.816 Y130.750 E18.48767
G1 X52.959 Y130.610 E18.49932
G1 X53.101 Y130.494 E18.50999
G1 X53.285 Y130.375 E18.52275
G1 X53.447 Y130.292 E18.53334
G1 X53.639 Y130.219 E18.54530
G1 X53.825 Y130.170 E18.55649
G1 X54.032 Y130.136 E18.56870
G1 X54.221 Y130.127 E18.57972
G1 X54.433 Y130.138 E18.59207
