;FLAVOR:RepRap
;TIME:6699
M190 S50.000000
M104 S210.000000
M109 S210.000000
G21 ;metric values
G90 ;absolute positioning
M82 ;set extruder to absolute mode
M107 ;start with the fan off
G28 X0 Y0 ;move X/Y to min endstops
G28 Z0 ;move Z to min endstops
G1 Z15.0 F9000 ;move the platform down 15mm
G92 E0 ;zero the extruded length
G1 F200 E3 ;extrude 3mm of feed stock
G92 E0 ;zero the extruded length again
G1 F9000
;Put printing message on LCD screen
M117 Printing...
;Generated with Cura_SteamEngine master
;LAYER_COUNT:157
;LAYER:0
M107
G1 F1500.000000 E-2.00000
G0 F7200.00000 X73.160 Y74.802 Z0.350
;TYPE:SKIRT
G1 F1500.000 E0.00000
G1 F1800.00000 X74.785 Y73.182 E0.13356
G1 X76.513 Y71.663 E0.26747
G1 X78.326 Y70.260 E0.40090
G1 X80.330 Y68.900 E0.54187
G1 X82.323 Y67.725 E0.67653
G1 X84.385 Y66.678 E0.81114
G1 X86.507 Y65.766 E0.94557
G1 X88.683 Y64.985 E1.08014
G1 X90.904 Y64.342 E1.21472
G1 X93.165 Y63.841 E1.34952
G1 X95.444 Y63.485 E1.48377
G1 X97.746 Y63.270 E1.61835
G1 X100.056 Y63.202 E1.75286
G1 X102.367 Y63.277 E1.88744
G1 X104.668 Y63.499 E2.02199
G1 X106.952 Y63.862 E2.15660
G1 X109.205 Y64.371 E2.29104
G1 X111.425 Y65.020 E2.42567
G1 X113.600 Y65.807 E2.56030
G1 X115.718 Y66.727 E2.69470
G1 X117.778 Y67.780 E2.82936
G1 X119.765 Y68.960 E2.96387
G1 X121.672 Y70.261 E3.09824
G1 X123.503 Y71.682 E3.23314
G1 X125.231 Y73.213 E3.36752
G1 X126.866 Y74.852 E3.50227
G1 X128.389 Y76.587 E3.63664
G1 X129.804 Y78.415 E3.77120
G1 X131.101 Y80.331 E3.90587
G1 X132.275 Y82.322 E4.04040
G1 X133.321 Y84.382 E4.17487
G1 X134.237 Y86.506 E4.30951
G1 X135.015 Y88.682 E4.44401
G1 X135.658 Y90.904 E4.57865
G1 X136.157 Y93.158 E4.71302
G1 X136.517 Y95.444 E4.84772
G1 X136.730 Y97.746 E4.98228
G1 X136.799 Y100.055 E5.11674
G1 X136.723 Y102.367 E5.25138
G1 X136.503 Y104.669 E5.38598
G1 X136.136 Y106.950 E5.52045
G1 X135.629 Y109.206 E5.65504
G1 X134.981 Y111.423 E5.78948
G1 X134.195 Y113.601 E5.92425
G1 X133.273 Y115.719 E6.05871
G1 X132.220 Y117.777 E6.19326
G1 X131.040 Y119.765 E6.32782
G1 X129.738 Y121.675 E6.46237
G1 X128.318 Y123.501 E6.59700
G1 X126.788 Y125.232 E6.73147
G1 X125.149 Y126.866 E6.86618
G1 X123.413 Y128.390 E7.00064
G1 X121.583 Y129.804 E7.13524
G1 X119.670 Y131.100 E7.26974
G1 X117.678 Y132.275 E7.40435
G1 X115.616 Y133.321 E7.53893
G1 X113.495 Y134.236 E7.67338
G1 X111.317 Y135.015 E7.80802
G1 X109.095 Y135.658 E7.94265
G1 X106.842 Y136.157 E8.07697
G1 X104.556 Y136.517 E8.21166
G1 X102.254 Y136.729 E8.34622
G1 X99.944 Y136.798 E8.48073
G1 X97.634 Y136.722 E8.61526
G1 X95.330 Y136.503 E8.74997
G1 X93.054 Y136.136 E8.88416
G1 X90.793 Y135.629 E9.01903
G1 X88.576 Y134.980 E9.15348
G1 X86.404 Y134.194 E9.28793
G1 X84.281 Y133.273 E9.42263
G1 X82.224 Y132.220 E9.55713
G1 X80.232 Y131.039 E9.69192
G1 X78.240 Y129.677 E9.83238
G1 X76.427 Y128.265 E9.96613
G1 X74.703 Y126.744 E10.09995
G1 X73.084 Y125.117 E10.23354
G1 X71.565 Y123.393 E10.36728
G1 X70.161 Y121.575 E10.50098
G1 X68.876 Y119.676 E10.63444
G1 X67.709 Y117.698 E10.76812
G1 X66.671 Y115.652 E10.90165
G1 X65.763 Y113.544 E11.03525
G1 X64.989 Y111.381 E11.16896
G1 X64.353 Y109.174 E11.30265
G1 X63.847 Y106.901 E11.43819
G1 X63.486 Y104.556 E11.57629
G1 X63.271 Y102.255 E11.71080
G1 X63.201 Y99.942 E11.84549
G1 X63.278 Y97.632 E11.98002
G1 X63.511 Y95.230 E12.12049
G1 X63.872 Y92.961 E12.25421
G1 X64.380 Y90.716 E12.38819
G1 X65.023 Y88.514 E12.52171
G1 X65.805 Y86.351 E12.65558
G1 X66.719 Y84.245 E12.78921
G1 X67.764 Y82.202 E12.92278
G1 X68.935 Y80.231 E13.05622
G1 X70.228 Y78.331 E13.18999
G1 X71.639 Y76.521 E13.32357
G1 X73.160 Y74.802 E13.45717
G0 F7200.00000 X73.443 Y75.085
G1 F1800.000 X75.050 Y73.482 E13.58928
G1 X76.758 Y71.979 E13.72171
G1 X78.551 Y70.591 E13.85368
G1 X80.533 Y69.244 E13.99317
G1 X82.504 Y68.082 E14.12634
G1 X84.543 Y67.046 E14.25946
G1 X86.643 Y66.142 E14.39254
G1 X88.795 Y65.369 E14.52563
G1 X90.991 Y64.733 E14.65870
G1 X93.227 Y64.236 E14.79203
G1 X95.482 Y63.883 E14.92488
G1 X97.759 Y63.670 E15.05799
G1 X100.043 Y63.602 E15.19099
G1 X102.329 Y63.675 E15.32411
G1 X104.606 Y63.894 E15.45726
G1 X106.865 Y64.253 E15.59040
G1 X109.094 Y64.755 E15.72338
G1 X111.290 Y65.396 E15.85654
G1 X113.441 Y66.174 E15.98967
G1 X115.536 Y67.083 E16.12260
G1 X117.574 Y68.124 E16.25580
G1 X119.540 Y69.291 E16.38887
G1 X121.428 Y70.578 E16.52187
G1 X123.238 Y71.982 E16.65520
G1 X124.948 Y73.496 E16.78813
G1 X126.566 Y75.116 E16.92140
G1 X128.073 Y76.832 E17.05433
G1 X129.473 Y78.640 E17.18743
G1 X130.757 Y80.534 E17.32061
G1 X131.918 Y82.503 E17.45366
G1 X132.954 Y84.541 E17.58673
G1 X133.860 Y86.641 E17.71985
G1 X134.631 Y88.794 E17.85296
G1 X135.268 Y90.991 E17.98610
G1 X135.762 Y93.221 E18.11904
G1 X136.119 Y95.482 E18.25228
G1 X136.330 Y97.759 E18.38538
G1 X136.399 Y100.043 E18.51838
G1 X136.325 Y102.329 E18.65151
G1 X136.108 Y104.606 E18.78464
G1 X135.745 Y106.863 E18.91770
G1 X135.245 Y109.094 E19.05078
G1 X134.605 Y111.287 E19.18374
G1 X133.828 Y113.442 E19.31708
G1 X132.916 Y115.538 E19.45013
G1 X131.876 Y117.574 E19.58320
G1 X130.710 Y119.540 E19.71624
G1 X129.421 Y121.430 E19.84940
G1 X128.017 Y123.237 E19.98259
G1 X126.505 Y124.949 E20.11554
G1 X124.885 Y126.565 E20.24872
G1 X123.168 Y128.074 E20.38177
G1 X121.358 Y129.473 E20.51492
G1 X119.466 Y130.756 E20.64798
G1 X117.496 Y131.919 E20.78114
G1 X115.457 Y132.954 E20.91423
G1 X113.359 Y133.859 E21.04722
G1 X111.206 Y134.631 E21.18035
G1 X109.008 Y135.267 E21.31353
G1 X106.779 Y135.762 E21.44643
G1 X104.518 Y136.119 E21.57967
G1 X102.241 Y136.329 E21.71276
G1 X99.956 Y136.398 E21.84582
G1 X97.671 Y136.324 E21.97889
G1 X95.393 Y136.108 E22.11208
G1 X93.141 Y135.746 E22.24484
G1 X90.905 Y135.245 E22.37821
G1 X88.711 Y134.604 E22.51125
G1 X86.563 Y133.827 E22.64421
G1 X84.462 Y132.916 E22.77750
G1 X82.427 Y131.876 E22.91051
G1 X80.458 Y130.708 E23.04377
G1 X78.485 Y129.361 E23.18282
G1 X76.692 Y127.964 E23.31512
G1 X74.986 Y126.461 E23.44746
G1 X73.384 Y124.852 E23.57961
G1 X71.882 Y123.148 E23.71182
G1 X70.492 Y121.350 E23.84410
G1 X69.220 Y119.472 E23.97613
G1 X68.065 Y117.516 E24.10834
G1 X67.038 Y115.493 E24.24040
G1 X66.140 Y113.409 E24.37248
G1 X65.373 Y111.269 E24.50480
G1 X64.743 Y109.086 E24.63704
G1 X64.243 Y106.840 E24.77097
G1 X63.884 Y104.518 E24.90773
G1 X63.671 Y102.243 E25.04073
G1 X63.601 Y99.954 E25.17402
G1 X63.676 Y97.670 E25.30703
G1 X63.906 Y95.292 E25.44609
G1 X64.262 Y93.049 E25.57828
G1 X64.764 Y90.828 E25.71081
G1 X65.400 Y88.649 E25.84294
G1 X66.172 Y86.509 E25.97535
G1 X67.076 Y84.426 E26.10752
G1 X68.108 Y82.406 E26.23955
G1 X69.266 Y80.455 E26.37160
G1 X70.544 Y78.576 E26.50387
G1 X71.938 Y76.786 E26.63593
G1 X73.443 Y75.085 E26.76812
G0 F7200.00000 X73.726 Y75.368
G1 F1800.000 X75.314 Y73.782 E26.89876
G1 X77.003 Y72.295 E27.02974
G1 X78.776 Y70.922 E27.16026
G1 X80.737 Y69.588 E27.29831
G1 X82.686 Y68.438 E27.43002
G1 X84.702 Y67.413 E27.56166
G1 X86.779 Y66.518 E27.69330
G1 X88.907 Y65.753 E27.82492
G1 X91.078 Y65.123 E27.95650
G1 X93.289 Y64.631 E28.08834
G1 X95.519 Y64.281 E28.21972
G1 X97.771 Y64.069 E28.35138
G1 X100.031 Y64.001 E28.48298
G1 X102.292 Y64.073 E28.61465
G1 X104.544 Y64.289 E28.74633
G1 X106.777 Y64.643 E28.87793
G1 X108.982 Y65.139 E29.00948
G1 X111.154 Y65.772 E29.14116
G1 X113.282 Y66.541 E29.27286
G1 X115.355 Y67.440 E29.40438
G1 X117.370 Y68.468 E29.53604
G1 X119.315 Y69.622 E29.66768
G1 X121.183 Y70.894 E29.79922
G1 X122.973 Y72.282 E29.93106
G1 X124.666 Y73.779 E30.06260
G1 X126.266 Y75.380 E30.19434
G1 X127.757 Y77.078 E30.32587
G1 X129.142 Y78.865 E30.45746
G1 X130.413 Y80.738 E30.58921
G1 X131.562 Y82.685 E30.72080
G1 X132.587 Y84.700 E30.85239
G1 X133.484 Y86.777 E30.98407
G1 X134.247 Y88.906 E31.11571
G1 X134.877 Y91.078 E31.24734
G1 X135.367 Y93.284 E31.37887
G1 X135.721 Y95.519 E31.51058
G1 X135.931 Y97.772 E31.64229
G1 X136.000 Y100.030 E31.77378
G1 X135.927 Y102.292 E31.90550
G1 X135.713 Y104.543 E32.03711
G1 X135.355 Y106.776 E32.16875
G1 X134.861 Y108.982 E32.30033
G1 X134.228 Y111.152 E32.43190
G1 X133.461 Y113.283 E32.56372
G1 X132.560 Y115.356 E32.69529
G1 X131.532 Y117.370 E32.82690
G1 X130.379 Y119.315 E32.95850
G1 X129.105 Y121.185 E33.09021
G1 X127.717 Y122.972 E33.22191
G1 X126.222 Y124.666 E33.35342
G1 X124.620 Y126.265 E33.48516
G1 X122.923 Y127.758 E33.61672
G1 X121.133 Y129.142 E33.74842
G1 X119.262 Y130.412 E33.88004
G1 X117.315 Y131.562 E34.01166
G1 X115.298 Y132.587 E34.14335
G1 X113.224 Y133.483 E34.27485
G1 X111.094 Y134.247 E34.40656
G1 X108.921 Y134.877 E34.53825
G1 X106.716 Y135.367 E34.66972
G1 X104.481 Y135.721 E34.80143
G1 X102.228 Y135.930 E34.93313
G1 X99.969 Y135.999 E35.06468
G1 X97.709 Y135.926 E35.19629
G1 X95.456 Y135.713 E35.32801
G1 X93.228 Y135.355 E35.45935
G1 X91.017 Y134.861 E35.59122
G1 X88.847 Y134.228 E35.72279
G1 X86.721 Y133.460 E35.85436
G1 X84.644 Y132.560 E35.98611
G1 X82.631 Y131.532 E36.11767
G1 X80.683 Y130.377 E36.24949
G1 X78.731 Y129.045 E36.38704
G1 X76.956 Y127.664 E36.51794
G1 X75.269 Y126.178 E36.64879
G1 X73.684 Y124.587 E36.77951
G1 X72.198 Y122.903 E36.91023
G1 X70.823 Y121.126 E37.04101
G1 X69.565 Y119.269 E37.17156
G1 X68.422 Y117.335 E37.30232
G1 X67.405 Y115.334 E37.43297
G1 X66.516 Y113.273 E37.56362
G1 X65.758 Y111.158 E37.69439
G1 X65.133 Y108.999 E37.82521
G1 X64.638 Y106.779 E37.95760
G1 X64.282 Y104.481 E38.09295
G1 X64.071 Y102.230 E38.22455
G1 X64.001 Y99.967 E38.35633
G1 X64.075 Y97.708 E38.48788
G1 X64.301 Y95.355 E38.62547
G1 X64.652 Y93.137 E38.75618
G1 X65.149 Y90.939 E38.88734
G1 X65.776 Y88.785 E39.01792
G1 X66.539 Y86.668 E39.14890
G1 X67.432 Y84.608 E39.27958
G1 X68.453 Y82.609 E39.41023
G1 X69.597 Y80.680 E39.54077
G1 X70.860 Y78.822 E39.67154
G1 X72.238 Y77.050 E39.80219
G1 X73.726 Y75.368 E39.93291
G0 F7200.00000 X74.009 Y75.651
G1 F1800.000 X75.579 Y74.082 E40.06210
G1 X77.248 Y72.611 E40.19159
G1 X79.001 Y71.252 E40.32069
G1 X80.941 Y69.933 E40.45724
G1 X82.868 Y68.794 E40.58753
G1 X84.860 Y67.780 E40.71763
G1 X86.914 Y66.895 E40.84781
G1 X89.018 Y66.137 E40.97798
G1 X91.165 Y65.513 E41.10811
G1 X93.352 Y65.026 E41.23853
G1 X95.557 Y64.680 E41.36844
G1 X97.783 Y64.469 E41.49859
G1 X100.019 Y64.401 E41.62879
G1 X102.254 Y64.472 E41.75895
G1 X104.481 Y64.684 E41.88916
G1 X106.690 Y65.033 E42.01933
G1 X108.870 Y65.523 E42.14938
G1 X111.018 Y66.149 E42.27961
G1 X113.123 Y66.908 E42.40985
G1 X115.173 Y67.796 E42.53988
G1 X117.167 Y68.813 E42.67017
G1 X119.090 Y69.953 E42.80029
G1 X120.938 Y71.210 E42.93038
G1 X122.708 Y72.581 E43.06069
G1 X124.383 Y74.062 E43.19083
G1 X125.965 Y75.645 E43.32109
G1 X127.441 Y77.323 E43.45117
G1 X128.811 Y79.090 E43.58131
G1 X130.068 Y80.942 E43.71159
G1 X131.206 Y82.867 E43.84175
G1 X132.220 Y84.859 E43.97185
G1 X133.108 Y86.912 E44.10204
G1 X133.863 Y89.017 E44.23221
G1 X134.487 Y91.165 E44.36240
G1 X134.972 Y93.347 E44.49250
G1 X135.322 Y95.557 E44.62274
G1 X135.531 Y97.784 E44.75293
G1 X135.600 Y100.018 E44.88303
G1 X135.528 Y102.254 E45.01324
G1 X135.318 Y104.480 E45.14338
G1 X134.965 Y106.689 E45.27359
G1 X134.477 Y108.871 E45.40373
G1 X133.852 Y111.017 E45.53383
G1 X133.094 Y113.124 E45.66416
G1 X132.204 Y115.174 E45.79424
G1 X131.187 Y117.166 E45.92442
G1 X130.048 Y119.090 E46.05456
G1 X128.789 Y120.940 E46.18481
G1 X127.417 Y122.708 E46.31507
G1 X125.939 Y124.383 E46.44509
G1 X124.356 Y125.965 E46.57535
G1 X122.678 Y127.441 E46.70543
G1 X120.908 Y128.811 E46.83571
G1 X119.059 Y130.067 E46.96581
G1 X117.133 Y131.206 E47.09605
G1 X115.139 Y132.220 E47.22626
G1 X113.088 Y133.107 E47.35632
G1 X110.982 Y133.863 E47.48656
G1 X108.834 Y134.487 E47.61675
G1 X106.653 Y134.972 E47.74680
G1 X104.444 Y135.322 E47.87698
G1 X102.216 Y135.530 E48.00722
G1 X99.981 Y135.599 E48.13737
G1 X97.746 Y135.527 E48.26753
G1 X95.519 Y135.318 E48.39772
G1 X93.315 Y134.965 E48.52764
G1 X91.128 Y134.477 E48.65807
G1 X88.983 Y133.851 E48.78813
G1 X86.880 Y133.093 E48.91824
G1 X84.826 Y132.204 E49.04851
G1 X82.835 Y131.187 E49.17864
G1 X80.908 Y130.047 E49.30896
G1 X78.976 Y128.729 E49.44509
G1 X77.220 Y127.364 E49.57454
G1 X75.552 Y125.896 E49.70388
G1 X73.983 Y124.322 E49.83323
G1 X72.514 Y122.658 E49.96243
G1 X71.154 Y120.901 E50.09175
G1 X69.909 Y119.065 E50.22087
G1 X68.778 Y117.153 E50.35017
G1 X67.772 Y115.175 E50.47934
G1 X66.892 Y113.138 E50.60849
G1 X66.142 Y111.046 E50.73784
G1 X65.524 Y108.911 E50.86721
G1 X65.033 Y106.717 E50.99808
G1 X64.681 Y104.443 E51.13201
G1 X64.470 Y102.217 E51.26216
G1 X64.400 Y99.980 E51.39242
G1 X64.473 Y97.746 E51.52252
G1 X64.696 Y95.417 E51.65870
G1 X65.043 Y93.224 E51.78794
G1 X65.533 Y91.051 E51.91759
G1 X66.152 Y88.920 E52.04675
G1 X66.906 Y86.827 E52.17624
G1 X67.788 Y84.790 E52.30544
G1 X68.797 Y82.813 E52.43464
G1 X69.928 Y80.904 E52.56379
G1 X71.176 Y79.067 E52.69305
G1 X72.538 Y77.315 E52.82221
G1 X74.009 Y75.651 E52.95149
G0 F7200.00000 X74.292 Y75.934
G1 F1800.000 X75.844 Y74.382 E53.07924
G1 X77.493 Y72.927 E53.20724
G1 X79.226 Y71.583 E53.33489
G1 X81.144 Y70.277 E53.46995
G1 X83.049 Y69.151 E53.59875
G1 X85.019 Y68.147 E53.72745
G1 X87.050 Y67.271 E53.85619
G1 X89.130 Y66.521 E53.98489
G1 X91.252 Y65.904 E54.11352
G1 X93.414 Y65.421 E54.24246
G1 X95.595 Y65.078 E54.37096
G1 X97.796 Y64.869 E54.49965
G1 X100.006 Y64.801 E54.62834
G1 X102.216 Y64.870 E54.75704
G1 X104.419 Y65.079 E54.88584
G1 X106.603 Y65.424 E55.01454
G1 X108.759 Y65.907 E55.14314
G1 X110.883 Y66.525 E55.27189
G1 X112.964 Y67.275 E55.40065
G1 X114.992 Y68.153 E55.52927
G1 X116.963 Y69.157 E55.65802
G1 X118.865 Y70.284 E55.78670
G1 X120.693 Y71.527 E55.91537
G1 X122.443 Y72.881 E56.04416
G1 X124.100 Y74.345 E56.17286
G1 X125.665 Y75.909 E56.30164
G1 X127.125 Y77.568 E56.43027
G1 X128.480 Y79.315 E56.55895
G1 X129.724 Y81.145 E56.68775
G1 X130.849 Y83.048 E56.81642
G1 X131.853 Y85.018 E56.94512
G1 X132.731 Y87.047 E57.07380
G1 X133.479 Y89.129 E57.20257
G1 X134.096 Y91.252 E57.33125
G1 X134.577 Y93.410 E57.45994
G1 X134.924 Y95.594 E57.58865
G1 X135.131 Y97.797 E57.71744
G1 X135.200 Y100.005 E57.84602
G1 X135.130 Y102.217 E57.97484
G1 X134.923 Y104.417 E58.10345
G1 X134.574 Y106.602 E58.23225
G1 X134.093 Y108.759 E58.36088
G1 X133.475 Y110.882 E58.48958
G1 X132.727 Y112.965 E58.61840
G1 X131.847 Y114.993 E58.74707
G1 X130.843 Y116.963 E58.87577
G1 X129.717 Y118.865 E59.00442
G1 X128.473 Y120.695 E59.13322
G1 X127.117 Y122.443 E59.26198
G1 X125.656 Y124.100 E59.39057
G1 X124.091 Y125.665 E59.51939
G1 X122.433 Y127.125 E59.64798
G1 X120.683 Y128.480 E59.77680
G1 X118.855 Y129.723 E59.90547
G1 X116.952 Y130.849 E60.03417
G1 X114.980 Y131.853 E60.16297
G1 X112.953 Y132.730 E60.29152
G1 X110.871 Y133.479 E60.42031
G1 X108.747 Y134.096 E60.54904
G1 X106.590 Y134.577 E60.67768
G1 X104.407 Y134.924 E60.80633
G1 X102.203 Y135.130 E60.93518
G1 X99.994 Y135.199 E61.06382
G1 X97.783 Y135.129 E61.19257
G1 X95.582 Y134.923 E61.32124
G1 X93.402 Y134.574 E61.44974
G1 X91.240 Y134.093 E61.57866
G1 X89.118 Y133.475 E61.70730
G1 X87.039 Y132.726 E61.83593
G1 X85.007 Y131.847 E61.96479
G1 X83.038 Y130.843 E62.09344
G1 X81.133 Y129.716 E62.22227
G1 X79.221 Y128.413 E62.35694
G1 X77.484 Y127.063 E62.48499
G1 X75.835 Y125.613 E62.61280
G1 X74.283 Y124.057 E62.74071
G1 X72.830 Y122.413 E62.86842
G1 X71.485 Y120.676 E62.99629
G1 X70.253 Y118.861 E63.12397
G1 X69.135 Y116.972 E63.25173
G1 X68.139 Y115.016 E63.37949
G1 X67.269 Y113.003 E63.50714
G1 X66.526 Y110.935 E63.63504
G1 X65.914 Y108.824 E63.76297
G1 X65.428 Y106.656 E63.89229
G1 X65.079 Y104.405 E64.02487
G1 X64.870 Y102.204 E64.15356
G1 X64.800 Y99.993 E64.28232
G1 X64.871 Y97.784 E64.41096
G1 X65.091 Y95.479 E64.54573
G1 X65.433 Y93.312 E64.67342
G1 X65.917 Y91.162 E64.80170
G1 X66.529 Y89.055 E64.92940
G1 X67.273 Y86.986 E65.05738
G1 X68.145 Y84.971 E65.18517
G1 X69.141 Y83.017 E65.31283
G1 X70.259 Y81.129 E65.44054
G1 X71.492 Y79.312 E65.56835
G1 X72.838 Y77.580 E65.69603
G1 X74.292 Y75.934 E65.82386
G1 F1500.00000 E63.82386
G0 F7200.00000 X73.301 Y74.945
G0 X73.330 Y75.001
G0 X86.017 Y98.733
G0 X86.048 Y98.789
G0 X85.069 Y97.788
G1 F1500.000 E65.82386
G1 F1800.00000 X84.950 Y97.907 E65.83366
G1 X84.822 Y98.052 E65.84491
G1 X84.696 Y98.214 E65.85686
