;FLAVOR:RepRap
;TIME:599
M190 S50.000000
M104 S210.000000
M109 S210.000000
G21 ;metric values
G90 ;absolute positioning
M82 ;set extruder to absolute mode
M107 ;start with the fan off
G28 X0 Y0 ;move X/Y to min endstops
G28 Z0 ;move Z to min endstops
G1 Z15.0 F9000 ;move the platform down 15mm
G92 E0 ;zero the extruded length
G1 F200 E3 ;extrude 3mm of feed stock
G92 E0 ;zero the extruded length again
G1 F9000
;Put printing message on LCD screen
M117 Printing...
;Generated with Cura_SteamEngine master
;LAYER_COUNT:33
;LAYER:0
M107
G1 F1500.000000 E-2.00000
G0 F7200.00000 X89.600 Y93.972 Z0.350
;TYPE:SKIRT
G1 F1500.000 E0.00000
G1 F1800.00000 X90.300 Y93.328 E0.05536
G1 X91.040 Y92.728 E0.11081
G1 X91.817 Y92.176 E0.16629
G1 X92.598 Y91.689 E0.21986
G1 X93.041 Y91.442 E0.24938
G1 X93.862 Y91.033 E0.30277
G1 X94.327 Y90.828 E0.33235
G1 X95.191 Y90.495 E0.38625
G1 X95.639 Y90.346 E0.41373
G1 X96.096 Y90.209 E0.44150
G1 X96.554 Y90.088 E0.46907
G1 X97.022 Y89.979 E0.49704
G1 X97.489 Y89.886 E0.52475
G1 X97.954 Y89.810 E0.55218
G1 X98.429 Y89.745 E0.58008
G1 X98.902 Y89.698 E0.60775
G1 X99.376 Y89.664 E0.63541
G1 X99.847 Y89.646 E0.66285
G1 X100.354 Y89.642 E0.69236
G1 X101.305 Y89.681 E0.74776
G1 X102.254 Y89.780 E0.80329
G1 X103.161 Y89.932 E0.85682
G1 X103.656 Y90.040 E0.88631
G1 X104.575 Y90.286 E0.94168
G1 X105.478 Y90.589 E0.99712
G1 X106.331 Y90.936 E1.05072
G1 X106.790 Y91.148 E1.08015
G1 X107.608 Y91.574 E1.13383
G1 X108.045 Y91.829 E1.16328
G1 X108.841 Y92.346 E1.21853
G1 X109.607 Y92.914 E1.27403
G1 X110.329 Y93.523 E1.32901
G1 X110.935 Y94.097 E1.37759
G1 X111.267 Y94.440 E1.40538
G1 X111.585 Y94.791 E1.43295
G1 X111.896 Y95.157 E1.46090
G1 X112.190 Y95.526 E1.48836
G1 X112.477 Y95.908 E1.51617
G1 X112.751 Y96.299 E1.54396
G1 X113.009 Y96.696 E1.57152
G1 X113.258 Y97.103 E1.59929
G1 X113.493 Y97.516 E1.62695
G1 X113.714 Y97.936 E1.65458
G1 X113.924 Y98.367 E1.68248
G1 X114.118 Y98.798 E1.70999
G1 X114.299 Y99.239 E1.73774
G1 X114.467 Y99.684 E1.76542
G1 X114.620 Y100.135 E1.79314
G1 X114.759 Y100.588 E1.82072
G1 X114.884 Y101.049 E1.84853
G1 X114.995 Y101.512 E1.87624
G1 X115.090 Y101.979 E1.90398
G1 X115.171 Y102.448 E1.93168
G1 X115.237 Y102.919 E1.95936
G1 X115.288 Y103.391 E1.98700
G1 X115.325 Y103.865 E2.01467
G1 X115.347 Y104.344 E2.04258
G1 X115.353 Y104.815 E2.06999
G1 X115.345 Y105.294 E2.09788
G1 X115.321 Y105.769 E2.12556
G1 X115.283 Y106.242 E2.15318
G1 X115.230 Y106.715 E2.18088
G1 X115.162 Y107.185 E2.20853
G1 X115.080 Y107.656 E2.23635
G1 X114.982 Y108.121 E2.26401
G1 X114.870 Y108.585 E2.29180
G1 X114.743 Y109.043 E2.31946
G1 X114.603 Y109.497 E2.34711
G1 X114.448 Y109.947 E2.37482
G1 X114.268 Y110.417 E2.40411
G1 X113.899 Y111.266 E2.45799
G1 X113.689 Y111.693 E2.48569
G1 X113.466 Y112.111 E2.51326
G1 X113.228 Y112.526 E2.54111
G1 X112.981 Y112.929 E2.56862
G1 X112.718 Y113.328 E2.59644
G1 X112.442 Y113.718 E2.62425
G1 X112.158 Y114.094 E2.65167
G1 X111.858 Y114.469 E2.67962
G1 X111.549 Y114.829 E2.70724
G1 X111.220 Y115.188 E2.73558
G1 X110.828 Y115.587 E2.76814
G1 X110.484 Y115.915 E2.79580
G1 X110.108 Y116.251 E2.82515
G1 X109.389 Y116.836 E2.87911
G1 X108.985 Y117.132 E2.90826
G1 X108.193 Y117.659 E2.96363
G1 X107.367 Y118.137 E3.01918
G1 X106.544 Y118.546 E3.07267
G1 X106.081 Y118.750 E3.10212
G1 X105.217 Y119.084 E3.15603
G1 X104.768 Y119.234 E3.18359
G1 X104.311 Y119.370 E3.21134
G1 X103.850 Y119.492 E3.23910
G1 X103.360 Y119.604 E3.26835
G1 X102.454 Y119.769 E3.32195
G1 X101.979 Y119.834 E3.34986
G1 X101.506 Y119.881 E3.37753
G1 X101.032 Y119.915 E3.40519
G1 X100.560 Y119.933 E3.43268
G1 X100.053 Y119.937 E3.46219
G1 X99.103 Y119.898 E3.51753
G1 X98.181 Y119.803 E3.57148
G1 X97.684 Y119.727 E3.60074
G1 X96.754 Y119.539 E3.65597
G1 X95.833 Y119.293 E3.71146
G1 X94.930 Y118.990 E3.76690
G1 X94.075 Y118.643 E3.82060
G1 X93.618 Y118.431 E3.84993
G1 X92.800 Y118.005 E3.90361
G1 X92.387 Y117.766 E3.93138
G1 X91.960 Y117.497 E3.96076
G1 X91.201 Y116.972 E4.01447
G1 X90.801 Y116.665 E4.04382
G1 X90.080 Y116.057 E4.09872
G1 X89.470 Y115.480 E4.14759
G1 X89.144 Y115.142 E4.17492
G1 X88.820 Y114.786 E4.20294
G1 X88.512 Y114.422 E4.23069
G1 X88.218 Y114.053 E4.25816
G1 X87.931 Y113.671 E4.28597
G1 X87.657 Y113.280 E4.31376
G1 X87.401 Y112.886 E4.34110
G1 X87.147 Y112.473 E4.36933
G1 X86.917 Y112.066 E4.39654
G1 X86.692 Y111.640 E4.42458
G1 X86.526 Y111.299 E4.44665
G1 X86.288 Y110.777 E4.48004
G1 X86.108 Y110.339 E4.50761
G1 X85.941 Y109.894 E4.53527
G1 X85.789 Y109.447 E4.56275
G1 X85.647 Y108.986 E4.59083
G1 X85.524 Y108.529 E4.61838
G1 X85.413 Y108.066 E4.64609
G1 X85.318 Y107.599 E4.67383
G1 X85.237 Y107.130 E4.70153
G1 X85.171 Y106.659 E4.72921
G1 X85.120 Y106.187 E4.75684
G1 X85.083 Y105.713 E4.78452
G1 X85.061 Y105.238 E4.81220
G1 X85.054 Y104.759 E4.84008
G1 X85.063 Y104.284 E4.86773
G1 X85.087 Y103.809 E4.89541
G1 X85.125 Y103.336 E4.92303
G1 X85.178 Y102.863 E4.95074
G1 X85.246 Y102.393 E4.97838
G1 X85.328 Y101.922 E5.00621
G1 X85.432 Y101.431 E5.03542
G1 X85.665 Y100.531 E5.08953
G1 X85.805 Y100.081 E5.11696
G1 X85.970 Y99.605 E5.14628
G1 X86.312 Y98.745 E5.20015
G1 X86.507 Y98.316 E5.22758
G1 X86.720 Y97.883 E5.25567
G1 X86.940 Y97.471 E5.28285
G1 X87.181 Y97.050 E5.31109
G1 X87.427 Y96.650 E5.33842
G1 X87.690 Y96.251 E5.36624
G1 X87.966 Y95.861 E5.39405
G1 X88.250 Y95.485 E5.42147
G1 X88.548 Y95.112 E5.44926
G1 X88.861 Y94.747 E5.47725
G1 X89.186 Y94.393 E5.50522
G1 X89.600 Y93.972 E5.53959
G0 F7200.00000 X89.872 Y94.265
G1 F1800.000 X90.553 Y93.638 E5.59347
G1 X91.273 Y93.053 E5.64746
G1 X92.029 Y92.515 E5.70147
G1 X92.794 Y92.038 E5.75395
G1 X93.220 Y91.800 E5.78235
G1 X94.025 Y91.399 E5.83469
G1 X94.472 Y91.201 E5.86315
G1 X95.317 Y90.874 E5.91589
G1 X95.755 Y90.729 E5.94274
G1 X96.199 Y90.595 E5.96974
G1 X96.645 Y90.477 E5.99659
G1 X97.100 Y90.371 E6.02378
G1 X97.555 Y90.281 E6.05078
G1 X98.008 Y90.206 E6.07751
G1 X98.470 Y90.143 E6.10464
G1 X98.931 Y90.097 E6.13161
G1 X99.392 Y90.064 E6.15851
G1 X99.851 Y90.046 E6.18525
G1 X100.339 Y90.042 E6.21365
G1 X101.265 Y90.079 E6.26759
G1 X102.189 Y90.175 E6.32167
G1 X103.078 Y90.323 E6.37412
G1 X103.554 Y90.426 E6.40247
G1 X104.449 Y90.665 E6.45639
G1 X105.329 Y90.960 E6.51041
G1 X106.164 Y91.299 E6.56286
G1 X106.606 Y91.504 E6.59122
G1 X107.408 Y91.920 E6.64381
G1 X107.828 Y92.165 E6.67211
G1 X108.604 Y92.668 E6.72594
G1 X109.350 Y93.220 E6.77995
G1 X110.055 Y93.814 E6.83361
G1 X110.648 Y94.375 E6.88113
G1 X110.971 Y94.709 E6.90817
G1 X111.281 Y95.051 E6.93504
G1 X111.584 Y95.406 E6.96220
G1 X111.871 Y95.766 E6.98900
G1 X112.150 Y96.138 E7.01607
G1 X112.416 Y96.519 E7.04311
G1 X112.668 Y96.905 E7.06994
G1 X112.910 Y97.301 E7.09696
G1 X113.139 Y97.704 E7.12393
G1 X113.355 Y98.112 E7.15081
G1 X113.560 Y98.531 E7.17796
G1 X113.748 Y98.951 E7.20474
G1 X113.925 Y99.380 E7.23175
G1 X114.088 Y99.813 E7.25868
G1 X114.238 Y100.253 E7.28574
G1 X114.373 Y100.694 E7.31258
G1 X114.495 Y101.142 E7.33961
G1 X114.603 Y101.593 E7.36660
G1 X114.696 Y102.047 E7.39357
G1 X114.775 Y102.504 E7.42057
G1 X114.840 Y102.962 E7.44749
G1 X114.890 Y103.423 E7.47448
G1 X114.925 Y103.884 E7.50139
G1 X114.947 Y104.350 E7.52855
G1 X114.953 Y104.809 E7.55527
G1 X114.945 Y105.275 E7.58239
G1 X114.923 Y105.737 E7.60932
G1 X114.886 Y106.199 E7.63629
G1 X114.834 Y106.659 E7.66324
G1 X114.768 Y107.117 E7.69017
G1 X114.688 Y107.575 E7.71723
G1 X114.593 Y108.028 E7.74417
G1 X114.484 Y108.479 E7.77118
G1 X114.361 Y108.925 E7.79811
G1 X114.224 Y109.368 E7.82510
G1 X114.074 Y109.806 E7.85204
G1 X113.901 Y110.259 E7.88027
G1 X113.540 Y111.090 E7.93300
G1 X113.335 Y111.505 E7.95995
G1 X113.118 Y111.913 E7.98684
G1 X112.887 Y112.317 E8.01393
G1 X112.646 Y112.709 E8.04071
G1 X112.391 Y113.098 E8.06779
G1 X112.123 Y113.478 E8.09485
G1 X111.846 Y113.845 E8.12162
G1 X111.554 Y114.209 E8.14878
G1 X111.253 Y114.560 E8.17569
G1 X110.935 Y114.908 E8.20313
G1 X110.551 Y115.298 E8.23499
G1 X110.217 Y115.617 E8.26187
G1 X109.855 Y115.941 E8.29015
G1 X109.151 Y116.514 E8.34298
G1 X108.762 Y116.800 E8.37108
G1 X107.992 Y117.313 E8.42494
G1 X107.188 Y117.779 E8.47903
G1 X106.382 Y118.181 E8.53145
G1 X105.936 Y118.378 E8.55983
G1 X105.091 Y118.705 E8.61257
G1 X104.653 Y118.851 E8.63944
G1 X104.208 Y118.984 E8.66647
G1 X103.759 Y119.103 E8.69351
G1 X103.288 Y119.211 E8.72164
G1 X102.400 Y119.373 E8.77418
G1 X101.938 Y119.436 E8.80132
G1 X101.477 Y119.482 E8.82828
G1 X101.016 Y119.515 E8.85518
G1 X100.556 Y119.533 E8.88198
G1 X100.068 Y119.537 E8.91038
G1 X99.143 Y119.500 E8.96427
G1 X98.241 Y119.408 E9.01704
G1 X97.762 Y119.334 E9.04525
G1 X96.855 Y119.152 E9.09909
G1 X95.959 Y118.914 E9.15305
G1 X95.080 Y118.619 E9.20702
G1 X94.242 Y118.279 E9.25966
G1 X93.802 Y118.075 E9.28789
G1 X93.000 Y117.659 E9.34048
G1 X92.599 Y117.426 E9.36747
G1 X92.187 Y117.168 E9.39576
G1 X91.443 Y116.654 E9.44840
G1 X91.058 Y116.359 E9.47663
G1 X90.354 Y115.766 E9.53021
G1 X89.757 Y115.202 E9.57801
G1 X89.439 Y114.872 E9.60468
G1 X89.125 Y114.526 E9.63188
G1 X88.824 Y114.173 E9.65888
G1 X88.537 Y113.813 E9.68568
G1 X88.258 Y113.441 E9.71274
G1 X87.992 Y113.060 E9.73979
G1 X87.741 Y112.676 E9.76649
G1 X87.495 Y112.276 E9.79382
G1 X87.270 Y111.878 E9.82044
G1 X87.051 Y111.464 E9.84770
G1 X86.889 Y111.133 E9.86915
G1 X86.658 Y110.625 E9.90163
G1 X86.482 Y110.198 E9.92851
G1 X86.320 Y109.765 E9.95542
G1 X86.171 Y109.329 E9.98224
G1 X86.033 Y108.881 E10.00952
G1 X85.913 Y108.436 E10.03635
G1 X85.805 Y107.985 E10.06334
G1 X85.712 Y107.531 E10.09032
G1 X85.633 Y107.074 E10.11731
G1 X85.568 Y106.616 E10.14423
G1 X85.518 Y106.155 E10.17122
G1 X85.483 Y105.694 E10.19813
G1 X85.461 Y105.231 E10.22511
G1 X85.454 Y104.766 E10.25218
G1 X85.463 Y104.303 E10.27914
G1 X85.485 Y103.841 E10.30606
G1 X85.522 Y103.379 E10.33303
G1 X85.574 Y102.919 E10.35998
G1 X85.640 Y102.461 E10.38691
G1 X85.720 Y102.003 E10.41397
G1 X85.820 Y101.530 E10.44211
G1 X86.047 Y100.649 E10.49507
G1 X86.184 Y100.210 E10.52184
G1 X86.342 Y99.752 E10.55004
G1 X86.677 Y98.910 E10.60278
G1 X86.867 Y98.492 E10.62951
G1 X87.073 Y98.071 E10.65679
G1 X87.288 Y97.668 E10.68337
G1 X87.521 Y97.260 E10.71072
G1 X87.762 Y96.870 E10.73740
G1 X88.017 Y96.481 E10.76448
G1 X88.285 Y96.101 E10.79154
G1 X88.562 Y95.734 E10.81831
G1 X88.853 Y95.372 E10.84534
G1 X89.156 Y95.017 E10.87251
G1 X89.472 Y94.672 E10.89974
G1 X89.872 Y94.265 E10.93295
G0 F7200.00000 X90.144 Y94.559
G1 F1800.000 X90.806 Y93.948 E10.98539
G1 X91.506 Y93.378 E11.03793
G1 X92.241 Y92.854 E11.09047
G1 X92.991 Y92.387 E11.14189
G1 X93.399 Y92.158 E11.16913
G1 X94.188 Y91.764 E11.22046
G1 X94.617 Y91.574 E11.24777
G1 X95.444 Y91.254 E11.29938
G1 X95.870 Y91.112 E11.32552
G1 X96.302 Y90.982 E11.35178
G1 X96.736 Y90.866 E11.37793
G1 X97.178 Y90.763 E11.40434
G1 X97.621 Y90.676 E11.43062
G1 X98.063 Y90.602 E11.45670
G1 X98.511 Y90.541 E11.48302
G1 X98.959 Y90.496 E11.50923
G1 X99.408 Y90.464 E11.53543
G1 X99.856 Y90.446 E11.56152
G1 X100.324 Y90.442 E11.58877
G1 X101.225 Y90.477 E11.64125
G1 X102.123 Y90.569 E11.69379
G1 X102.995 Y90.715 E11.74525
G1 X103.452 Y90.813 E11.77246
G1 X104.323 Y91.045 E11.82492
G1 X105.179 Y91.331 E11.87745
G1 X105.997 Y91.663 E11.92884
G1 X106.423 Y91.859 E11.95613
G1 X107.208 Y92.266 E12.00760
G1 X107.611 Y92.501 E12.03475
G1 X108.367 Y92.990 E12.08716
G1 X109.093 Y93.527 E12.13972
G1 X109.780 Y94.105 E12.19197
G1 X110.361 Y94.654 E12.23850
G1 X110.675 Y94.978 E12.26476
G1 X110.977 Y95.311 E12.29093
G1 X111.271 Y95.656 E12.31731
G1 X111.551 Y96.007 E12.34344
G1 X111.822 Y96.368 E12.36972
G1 X112.081 Y96.738 E12.39601
G1 X112.327 Y97.114 E12.42216
G1 X112.563 Y97.499 E12.44844
G1 X112.786 Y97.891 E12.47469
G1 X112.996 Y98.288 E12.50083
G1 X113.195 Y98.695 E12.52720
G1 X113.379 Y99.105 E12.55336
G1 X113.551 Y99.522 E12.57962
G1 X113.710 Y99.943 E12.60581
G1 X113.856 Y100.370 E12.63208
G1 X113.987 Y100.800 E12.65824
G1 X114.106 Y101.235 E12.68449
G1 X114.211 Y101.674 E12.71076
G1 X114.302 Y102.116 E12.73703
G1 X114.379 Y102.560 E12.76326
G1 X114.442 Y103.006 E12.78948
G1 X114.491 Y103.454 E12.81571
G1 X114.526 Y103.903 E12.84192
G1 X114.547 Y104.356 E12.86832
G1 X114.553 Y104.803 E12.89434
G1 X114.546 Y105.256 E12.92071
G1 X114.524 Y105.706 E12.94693
G1 X114.488 Y106.155 E12.97315
G1 X114.438 Y106.603 E12.99939
G1 X114.374 Y107.048 E13.02555
G1 X114.296 Y107.494 E13.05191
G1 X114.204 Y107.935 E13.07813
G1 X114.098 Y108.373 E13.10436
G1 X113.979 Y108.808 E13.13061
G1 X113.846 Y109.238 E13.15681
G1 X113.700 Y109.664 E13.18302
G1 X113.534 Y110.100 E13.21017
G1 X113.181 Y110.914 E13.26181
G1 X112.982 Y111.318 E13.28803
G1 X112.771 Y111.715 E13.31419
G1 X112.546 Y112.108 E13.34055
G1 X112.311 Y112.490 E13.36666
G1 X112.063 Y112.868 E13.39297
G1 X111.803 Y113.237 E13.41925
G1 X111.533 Y113.595 E13.44535
G1 X111.250 Y113.949 E13.47172
G1 X110.957 Y114.291 E13.49794
G1 X110.649 Y114.628 E13.52451
G1 X110.274 Y115.009 E13.55563
G1 X109.949 Y115.320 E13.58181
G1 X109.602 Y115.631 E13.60893
G1 X108.913 Y116.192 E13.66065
G1 X108.539 Y116.467 E13.68767
G1 X107.790 Y116.968 E13.74012
G1 X107.009 Y117.421 E13.79267
G1 X106.219 Y117.816 E13.84408
G1 X105.791 Y118.005 E13.87131
G1 X104.964 Y118.325 E13.92292
G1 X104.537 Y118.468 E13.94913
G1 X104.105 Y118.597 E13.97538
G1 X103.669 Y118.713 E14.00164
G1 X103.215 Y118.817 E14.02875
G1 X102.345 Y118.977 E14.08023
G1 X101.897 Y119.038 E14.10655
G1 X101.449 Y119.083 E14.13276
G1 X100.999 Y119.115 E14.15902
G1 X100.551 Y119.133 E14.18511
G1 X100.083 Y119.137 E14.21235
G1 X99.183 Y119.102 E14.26478
G1 X98.300 Y119.012 E14.31644
G1 X97.840 Y118.942 E14.34352
G1 X96.957 Y118.765 E14.39594
G1 X96.085 Y118.534 E14.44845
G1 X95.230 Y118.248 E14.50092
G1 X94.409 Y117.916 E14.55247
G1 X93.985 Y117.720 E14.57966
G1 X93.200 Y117.313 E14.63112
G1 X92.810 Y117.086 E14.65739
G1 X92.414 Y116.839 E14.68455
G1 X91.685 Y116.335 E14.73614
G1 X91.315 Y116.052 E14.76325
G1 X90.628 Y115.475 E14.81547
G1 X90.045 Y114.924 E14.86216
G1 X89.734 Y114.602 E14.88822
G1 X89.429 Y114.267 E14.91459
G1 X89.137 Y113.923 E14.94085
G1 X88.857 Y113.572 E14.96699
G1 X88.586 Y113.211 E14.99326
G1 X88.327 Y112.841 E15.01955
G1 X88.082 Y112.467 E15.04557
G1 X87.843 Y112.078 E15.07214
G1 X87.623 Y111.690 E15.09811
G1 X87.410 Y111.289 E15.12453
G1 X87.253 Y110.966 E15.14544
G1 X87.028 Y110.472 E15.17703
G1 X86.856 Y110.056 E15.20324
G1 X86.698 Y109.635 E15.22941
G1 X86.553 Y109.210 E15.25555
G1 X86.419 Y108.776 E15.28198
G1 X86.302 Y108.343 E15.30809
G1 X86.197 Y107.904 E15.33436
G1 X86.106 Y107.462 E15.36063
G1 X86.029 Y107.018 E15.38686
G1 X85.966 Y106.572 E15.41308
G1 X85.917 Y106.124 E15.43931
G1 X85.882 Y105.675 E15.46552
G1 X85.861 Y105.225 E15.49174
G1 X85.854 Y104.772 E15.51811
G1 X85.862 Y104.322 E15.54431
G1 X85.884 Y103.872 E15.57053
G1 X85.920 Y103.423 E15.59675
G1 X85.970 Y102.975 E15.62299
G1 X86.034 Y102.530 E15.64916
G1 X86.112 Y102.084 E15.67551
G1 X86.207 Y101.629 E15.70256
G1 X86.429 Y100.768 E15.75432
G1 X86.562 Y100.340 E15.78040
G1 X86.714 Y99.899 E15.80755
G1 X87.041 Y99.075 E15.85915
G1 X87.226 Y98.667 E15.88523
G1 X87.426 Y98.259 E15.91168
G1 X87.636 Y97.866 E15.93761
G1 X87.862 Y97.469 E15.96420
G1 X88.097 Y97.089 E15.99021
G1 X88.345 Y96.711 E16.01652
G1 X88.605 Y96.342 E16.04280
G1 X88.875 Y95.984 E16.06889
G1 X89.157 Y95.631 E16.09519
G1 X89.451 Y95.287 E16.12153
G1 X89.758 Y94.952 E16.14798
G1 X90.144 Y94.559 E16.18004
G0 F7200.00000 X90.416 Y94.852
G1 F1800.000 X91.059 Y94.257 E16.23103
G1 X91.739 Y93.703 E16.28209
G1 X92.453 Y93.193 E16.33316
G1 X93.187 Y92.735 E16.38351
G1 X93.578 Y92.515 E16.40963
G1 X94.351 Y92.129 E16.45992
G1 X94.762 Y91.947 E16.48608
G1 X95.571 Y91.633 E16.53659
G1 X95.986 Y91.495 E16.56205
G1 X96.405 Y91.368 E16.58753
G1 X96.828 Y91.256 E16.61300
G1 X97.257 Y91.156 E16.63864
G1 X97.686 Y91.070 E16.66411
G1 X98.117 Y90.999 E16.68953
G1 X98.552 Y90.939 E16.71509
G1 X98.988 Y90.895 E16.74060
G1 X99.425 Y90.863 E16.76610
G1 X99.861 Y90.846 E16.79150
G1 X100.309 Y90.841 E16.81757
G1 X101.185 Y90.875 E16.86860
G1 X102.058 Y90.964 E16.91968
G1 X102.912 Y91.106 E16.97007
G1 X103.350 Y91.200 E16.99614
