;FLAVOR:RepRap
;TIME:2534
M190 S50.000000
M104 S210.000000
M109 S210.000000
G21 ;metric values
G90 ;absolute positioning
M82 ;set extruder to absolute mode
M107 ;start with the fan off
G28 X0 Y0 ;move X/Y to min endstops
G28 Z0 ;move Z to min endstops
G1 Z15.0 F9000 ;move the platform down 15mm
G92 E0 ;zero the extruded length
G1 F200 E3 ;extrude 3mm of feed stock
G92 E0 ;zero the extruded length again
G1 F9000
;Put printing message on LCD screen
M117 Printing...
;Generated with Cura_SteamEngine master
;LAYER_COUNT:59
;LAYER:0
M107
G1 F1500.000000 E-2.00000
G0 F7200.00000 X95.908 Y66.792 Z0.350
G0 X96.156 Y66.467
;TYPE:SKIRT
G1 F1500.000 E0.00000
G1 F1800.00000 X96.225 Y66.383 E0.00633
G1 X96.593 Y66.027 E0.03613
G1 X96.614 Y66.008 E0.03778
G1 X96.982 Y65.745 E0.06410
G1 X97.032 Y65.712 E0.06759
G1 X97.516 Y65.465 E0.09922
G1 X97.533 Y65.458 E0.10029
G1 X97.965 Y65.314 E0.12679
G1 X98.044 Y65.291 E0.13158
G1 X98.469 Y65.217 E0.15669
G1 X98.588 Y65.200 E0.16369
G1 X98.603 Y65.199 E0.16456
G1 X99.860 Y65.175 E0.23774
G1 X100.395 Y65.175 E0.26888
G1 X101.101 Y65.185 E0.30998
G1 X101.279 Y65.193 E0.32035
G1 X101.580 Y65.219 E0.33793
G1 X102.053 Y65.318 E0.36606
G1 X102.108 Y65.331 E0.36935
G1 X102.544 Y65.493 E0.39642
G1 X102.595 Y65.514 E0.39964
G1 X103.061 Y65.771 E0.43061
G1 X103.085 Y65.785 E0.43223
G1 X103.410 Y66.033 E0.45602
G1 X103.494 Y66.102 E0.46235
G1 X103.850 Y66.470 E0.49215
G1 X103.857 Y66.478 E0.49277
G1 X104.159 Y66.901 E0.52302
G1 X104.179 Y66.930 E0.52507
G1 X104.383 Y67.332 E0.55131
G1 X104.437 Y67.447 E0.55871
G1 X104.719 Y68.149 E0.60274
G1 X105.230 Y69.473 E0.68534
G1 X106.323 Y72.082 E0.84999
G1 X107.489 Y74.659 E1.01462
G1 X108.728 Y77.201 E1.17922
G1 X110.038 Y79.708 E1.34386
G1 X111.419 Y82.177 E1.50852
G1 X112.868 Y84.605 E1.67310
G1 X114.386 Y86.992 E1.83775
G1 X115.971 Y89.334 E2.00235
G1 X117.621 Y91.631 E2.16697
G1 X118.455 Y92.718 E2.24671
G1 X118.448 Y92.724 E2.24725
G1 X119.445 Y94.039 E2.34330
G1 X119.940 Y94.707 E2.39169
G1 X120.405 Y95.353 E2.43802
G1 X120.625 Y95.693 E2.46159
G1 X120.834 Y96.033 E2.48482
G1 X121.203 Y96.648 E2.52657
G1 X121.659 Y97.432 E2.57936
G1 X121.857 Y97.816 E2.60451
G1 X121.977 Y98.065 E2.62059
G1 X122.346 Y98.844 E2.67076
G1 X122.687 Y99.592 E2.71861
G1 X122.847 Y99.995 E2.74385
G1 X122.979 Y100.352 E2.76601
G1 X123.232 Y101.059 E2.80971
G1 X123.510 Y101.870 E2.85961
G1 X123.631 Y102.294 E2.88528
G1 X123.717 Y102.621 E2.90496
G1 X123.919 Y103.426 E2.95326
G1 X124.102 Y104.205 E2.99984
G1 X124.175 Y104.601 E3.02328
G1 X124.239 Y105.003 E3.04697
G1 X124.356 Y105.795 E3.09357
G1 X124.463 Y106.593 E3.14043
G1 X124.496 Y106.978 E3.16293
G1 X124.522 Y107.419 E3.18864
G1 X124.559 Y108.176 E3.23275
G1 X124.588 Y109.022 E3.28202
G1 X124.580 Y109.504 E3.31008
G1 X124.569 Y109.787 E3.32657
G1 X124.527 Y110.601 E3.37401
G1 X124.473 Y111.447 E3.42335
G1 X124.424 Y111.874 E3.44837
G1 X124.377 Y112.213 E3.46829
G1 X124.253 Y113.043 E3.51713
G1 X124.126 Y113.818 E3.56284
G1 X124.042 Y114.215 E3.58646
G1 X123.946 Y114.615 E3.61041
G1 X123.754 Y115.374 E3.65598
G1 X123.538 Y116.183 E3.70471
G1 X123.406 Y116.593 E3.72978
G1 X123.301 Y116.894 E3.74834
G1 X123.029 Y117.652 E3.79521
G1 X122.721 Y118.471 E3.84614
G1 X122.566 Y118.831 E3.86896
G1 X122.430 Y119.126 E3.88786
G1 X122.073 Y119.878 E3.93632
G1 X121.699 Y120.639 E3.98567
G1 X121.509 Y120.982 E4.00849
G1 X121.313 Y121.317 E4.03108
G1 X120.905 Y121.994 E4.07709
G1 X120.470 Y122.694 E4.12506
G1 X120.196 Y123.089 E4.15304
G1 X120.006 Y123.349 E4.17179
G1 X119.568 Y123.940 E4.21460
G1 X119.027 Y124.647 E4.26642
G1 X118.762 Y124.961 E4.29033
G1 X118.515 Y125.239 E4.31198
G1 X117.945 Y125.867 E4.36134
G1 X117.418 Y126.431 E4.40627
G1 X117.142 Y126.698 E4.42862
G1 X116.812 Y127.003 E4.45478
G1 X116.278 Y127.486 E4.49669
G1 X115.631 Y128.055 E4.54684
G1 X115.241 Y128.364 E4.57580
G1 X115.080 Y128.485 E4.58752
G1 X114.345 Y129.028 E4.64071
G1 X113.694 Y129.495 E4.68735
G1 X113.330 Y129.730 E4.71256
G1 X113.038 Y129.909 E4.73250
G1 X112.340 Y130.326 E4.77982
G1 X111.631 Y130.737 E4.82752
G1 X111.242 Y130.937 E4.85298
G1 X110.938 Y131.084 E4.87264
G1 X110.185 Y131.439 E4.92109
G1 X109.440 Y131.777 E4.96871
G1 X109.036 Y131.937 E4.99400
G1 X108.741 Y132.046 E5.01231
G1 X107.920 Y132.338 E5.06303
G1 X107.183 Y132.588 E5.10832
G1 X106.779 Y132.705 E5.13281
G1 X106.417 Y132.799 E5.15457
G1 X105.614 Y133.000 E5.20276
G1 X104.858 Y133.177 E5.24795
G1 X104.385 Y133.264 E5.27594
G1 X104.085 Y133.311 E5.29362
G1 X103.246 Y133.435 E5.34298
G1 X102.455 Y133.539 E5.38942
G1 X102.004 Y133.577 E5.41576
G1 X101.717 Y133.593 E5.43249
G1 X100.803 Y133.637 E5.48575
G1 X100.061 Y133.663 E5.52897
G1 X99.533 Y133.654 E5.55970
G1 X99.381 Y133.647 E5.56856
G1 X98.450 Y133.601 E5.62282
G1 X97.636 Y133.548 E5.67030
G1 X97.205 Y133.499 E5.69554
G1 X96.849 Y133.450 E5.71646
G1 X96.004 Y133.324 E5.76619
G1 X95.257 Y133.201 E5.81025
G1 X94.859 Y133.116 E5.83394
G1 X94.449 Y133.018 E5.85848
G1 X93.686 Y132.826 E5.90427
G1 X92.892 Y132.613 E5.95212
G1 X92.482 Y132.481 E5.97719
G1 X92.181 Y132.376 E5.99575
G1 X91.423 Y132.104 E6.04262
G1 X90.604 Y131.796 E6.09355
G1 X90.244 Y131.641 E6.11636
G1 X89.941 Y131.501 E6.13579
G1 X89.184 Y131.142 E6.18456
G1 X88.436 Y130.774 E6.23308
G1 X88.093 Y130.584 E6.25590
G1 X87.758 Y130.388 E6.27849
G1 X87.073 Y129.975 E6.32505
G1 X86.381 Y129.545 E6.37247
G1 X85.986 Y129.271 E6.40045
G1 X85.726 Y129.081 E6.41919
G1 X85.111 Y128.625 E6.46376
G1 X84.428 Y128.102 E6.51383
G1 X84.114 Y127.837 E6.53774
G1 X83.836 Y127.590 E6.55939
G1 X83.207 Y127.019 E6.60883
G1 X82.644 Y126.493 E6.65368
G1 X82.377 Y126.217 E6.67603
G1 X82.072 Y125.887 E6.70219
G1 X81.574 Y125.336 E6.74542
G1 X81.020 Y124.706 E6.79425
G1 X80.711 Y124.316 E6.82321
G1 X80.590 Y124.155 E6.83493
G1 X80.028 Y123.394 E6.88999
G1 X79.580 Y122.769 E6.93475
G1 X79.345 Y122.405 E6.95997
G1 X79.162 Y122.106 E6.98037
G1 X78.746 Y121.410 E7.02757
G1 X78.338 Y120.706 E7.07493
G1 X78.138 Y120.317 E7.10039
G1 X77.991 Y120.013 E7.12004
G1 X77.627 Y119.241 E7.16972
G1 X77.298 Y118.515 E7.21612
G1 X77.138 Y118.111 E7.24141
G1 X77.029 Y117.816 E7.25971
G1 X76.736 Y116.992 E7.31062
G1 X76.487 Y116.258 E7.35573
G1 X76.370 Y115.854 E7.38021
G1 X76.266 Y115.455 E7.40421
G1 X76.069 Y114.663 E7.45171
G1 X75.898 Y113.933 E7.49535
G1 X75.811 Y113.460 E7.52335
G1 X75.764 Y113.160 E7.54102
G1 X75.640 Y112.321 E7.59039
G1 X75.535 Y111.527 E7.63700
G1 X75.500 Y111.110 E7.66136
G1 X75.478 Y110.740 E7.68294
G1 X75.436 Y109.888 E7.73259
G1 X75.410 Y109.161 E7.77493
G1 X75.416 Y108.735 E7.79973
G1 X75.432 Y108.327 E7.82349
G1 X75.472 Y107.523 E7.87035
G1 X75.523 Y106.736 E7.91625
G1 X75.575 Y106.281 E7.94291
G1 X75.616 Y105.984 E7.96036
G1 X75.737 Y105.169 E8.00831
G1 X75.869 Y104.352 E8.05649
G1 X75.965 Y103.904 E8.08315
G1 X76.030 Y103.632 E8.09943
G1 X76.249 Y102.759 E8.15182
G1 X76.449 Y102.007 E8.19711
G1 X76.574 Y101.614 E8.22111
G1 X76.694 Y101.268 E8.24243
G1 X76.975 Y100.481 E8.29107
G1 X77.250 Y99.745 E8.33680
G1 X77.442 Y99.301 E8.36496
G1 X77.551 Y99.064 E8.38014
G1 X77.928 Y98.268 E8.43141
G1 X78.281 Y97.548 E8.47808
G1 X78.478 Y97.190 E8.50186
G1 X78.681 Y96.844 E8.52521
G1 X79.085 Y96.171 E8.57090
G1 X79.517 Y95.473 E8.61868
G1 X79.773 Y95.100 E8.64501
G1 X79.928 Y94.887 E8.66034
G1 X80.438 Y94.199 E8.71019
G1 X81.476 Y92.841 E8.80968
G1 X83.161 Y90.570 E8.97428
G1 X84.782 Y88.251 E9.13896
G1 X86.336 Y85.888 E9.30358
G1 X87.823 Y83.482 E9.46821
G1 X89.241 Y81.035 E9.63282
G1 X90.589 Y78.549 E9.79742
G1 X91.867 Y76.025 E9.96209
G1 X93.072 Y73.467 E10.12667
G1 X94.205 Y70.875 E10.29132
G1 X95.264 Y68.253 E10.45592
G1 X95.569 Y67.447 E10.50608
G1 X95.637 Y67.282 E10.51646
G1 X95.901 Y66.803 E10.54830
G1 X95.908 Y66.792 E10.54906
G1 X96.156 Y66.467 E10.57285
G0 F7200.00000 X96.663 Y66.500
G1 F1800.000 X96.789 Y66.387 E10.58270
G1 X97.034 Y66.187 E10.60111
G1 X97.073 Y66.160 E10.60387
G1 X97.153 Y66.108 E10.60943
G1 X97.472 Y65.922 E10.63092
G1 X97.487 Y65.915 E10.63188
G1 X97.626 Y65.854 E10.64072
G1 X97.928 Y65.736 E10.65959
G1 X97.938 Y65.733 E10.66020
G1 X97.944 Y65.731 E10.66057
G1 X97.946 Y65.730 E10.66070
G1 X98.077 Y65.696 E10.66857
G1 X98.361 Y65.635 E10.68548
G1 X98.891 Y65.585 E10.71647
G1 X98.899 Y65.585 E10.71693
G1 X99.145 Y65.577 E10.73126
G1 X99.355 Y65.575 E10.74348
G1 X100.395 Y65.575 E10.80402
G1 X101.101 Y65.585 E10.84511
G1 X101.258 Y65.592 E10.85426
G1 X101.575 Y65.621 E10.87279
G1 X101.597 Y65.624 E10.87408
G1 X101.608 Y65.626 E10.87473
G1 X101.758 Y65.657 E10.88365
G1 X102.057 Y65.734 E10.90162
G1 X102.110 Y65.749 E10.90482
G1 X102.241 Y65.799 E10.91298
G1 X102.553 Y65.934 E10.93277
G1 X102.584 Y65.950 E10.93480
G1 X102.686 Y66.009 E10.94166
G1 X102.975 Y66.193 E10.96160
G1 X102.976 Y66.194 E10.96168
G1 X102.983 Y66.199 E10.96219
G1 X103.132 Y66.320 E10.97336
G1 X103.356 Y66.518 E10.99076
G1 X103.382 Y66.544 E10.99290
G1 X103.462 Y66.633 E10.99986
G1 X103.690 Y66.911 E11.02079
G1 X103.701 Y66.927 E11.02192
G1 X103.778 Y67.046 E11.03017
G1 X103.952 Y67.344 E11.05026
G1 X103.957 Y67.352 E11.05081
G1 X104.015 Y67.484 E11.05920
G1 X104.469 Y68.648 E11.13192
G1 X105.533 Y71.268 E11.29651
G1 X106.671 Y73.858 E11.46117
G1 X107.881 Y76.414 E11.62578
G1 X109.164 Y78.935 E11.79042
G1 X110.517 Y81.418 E11.95501
G1 X111.940 Y83.863 E12.11967
G1 X113.432 Y86.266 E12.28430
G1 X114.990 Y88.626 E12.44890
G1 X116.615 Y90.941 E12.61353
G1 X118.305 Y93.209 E12.77816
G1 X118.618 Y93.609 E12.80772
G1 X119.107 Y94.255 E12.85488
G1 X119.614 Y94.939 E12.90443
G1 X120.076 Y95.580 E12.95042
G1 X120.305 Y95.934 E12.97496
G1 X120.464 Y96.194 E12.99270
G1 X120.879 Y96.887 E13.03972
G1 X121.313 Y97.634 E13.09000
G1 X121.469 Y97.934 E13.10968
G1 X121.644 Y98.295 E13.13304
G1 X121.985 Y99.015 E13.17941
G1 X122.322 Y99.754 E13.22668
G1 X122.494 Y100.190 E13.25396
G1 X122.575 Y100.411 E13.26766
G1 X122.855 Y101.194 E13.31606
G1 X123.132 Y102.004 E13.36589
G1 X123.231 Y102.347 E13.38667
G1 X123.334 Y102.737 E13.41015
G1 X123.532 Y103.529 E13.45766
G1 X123.712 Y104.292 E13.50329
G1 X123.791 Y104.726 E13.52897
G1 X123.824 Y104.936 E13.54134
G1 X123.960 Y105.854 E13.59536
G1 X124.065 Y106.636 E13.64128
G1 X124.098 Y107.026 E13.66407
G1 X124.120 Y107.391 E13.68535
G1 X124.161 Y108.252 E13.73552
G1 X124.188 Y109.035 E13.78112
G1 X124.183 Y109.389 E13.80173
G1 X124.165 Y109.859 E13.82911
G1 X124.129 Y110.574 E13.87077
G1 X124.075 Y111.417 E13.91994
G1 X124.028 Y111.825 E13.94385
G1 X123.991 Y112.092 E13.95954
G1 X123.858 Y112.985 E14.01209
G1 X123.732 Y113.752 E14.05733
G1 X123.653 Y114.119 E14.07918
G1 X123.553 Y114.534 E14.10403
G1 X123.366 Y115.277 E14.14862
G1 X123.153 Y116.075 E14.19670
G1 X123.034 Y116.443 E14.21921
G1 X122.926 Y116.755 E14.23842
G1 X122.653 Y117.516 E14.28548
G1 X122.357 Y118.303 E14.33442
G1 X122.187 Y118.697 E14.35940
G1 X122.069 Y118.953 E14.37581
G1 X121.716 Y119.698 E14.42379
G1 X121.346 Y120.452 E14.47268
G1 X121.168 Y120.774 E14.49409
G1 X120.964 Y121.120 E14.51747
G1 X120.563 Y121.787 E14.56277
G1 X120.127 Y122.488 E14.61082
G1 X119.883 Y122.841 E14.63580
G1 X119.708 Y123.081 E14.65309
G1 X119.229 Y123.726 E14.69985
G1 X118.707 Y124.407 E14.74979
G1 X118.448 Y124.713 E14.77312
G1 X118.273 Y124.910 E14.78846
G1 X117.649 Y125.598 E14.84252
G1 X117.130 Y126.153 E14.88675
G1 X116.874 Y126.401 E14.90750
G1 X116.544 Y126.706 E14.93365
G1 X116.010 Y127.189 E14.97556
G1 X115.356 Y127.764 E15.02625
G1 X115.055 Y128.003 E15.04862
G1 X114.809 Y128.188 E15.06654
G1 X114.091 Y128.719 E15.11851
G1 X113.465 Y129.167 E15.16332
G1 X113.116 Y129.393 E15.18752
G1 X112.880 Y129.537 E15.20361
G1 X112.135 Y129.983 E15.25415
G1 X111.433 Y130.389 E15.30135
G1 X111.064 Y130.580 E15.32554
G1 X110.795 Y130.710 E15.34293
G1 X110.014 Y131.078 E15.39318
G1 X109.288 Y131.408 E15.43960
G1 X108.910 Y131.558 E15.46327
G1 X108.569 Y131.683 E15.48441
G1 X107.786 Y131.962 E15.53279
G1 X107.068 Y132.206 E15.57693
G1 X106.630 Y132.331 E15.60344
G1 X106.347 Y132.405 E15.62047
G1 X105.517 Y132.612 E15.67026
G1 X104.747 Y132.792 E15.71628
G1 X104.372 Y132.861 E15.73848
G1 X104.015 Y132.917 E15.75951
G1 X103.188 Y133.039 E15.80817
G1 X102.404 Y133.142 E15.85419
G1 X101.965 Y133.178 E15.87983
G1 X101.742 Y133.191 E15.89283
G1 X100.784 Y133.237 E15.94866
G1 X100.049 Y133.262 E15.99146
G1 X99.655 Y133.257 E16.01440
G1 X99.259 Y133.241 E16.03746
G1 X98.470 Y133.202 E16.08344
G1 X97.664 Y133.150 E16.13045
G1 X97.264 Y133.105 E16.15388
G1 X96.928 Y133.058 E16.17363
G1 X96.064 Y132.929 E16.22448
G1 X95.323 Y132.807 E16.26819
G1 X94.956 Y132.728 E16.29004
G1 X94.541 Y132.628 E16.31489
G1 X93.784 Y132.438 E16.36031
G1 X93.000 Y132.228 E16.40756
G1 X92.632 Y132.109 E16.43007
G1 X92.320 Y132.001 E16.44928
G1 X91.559 Y131.728 E16.49634
G1 X90.772 Y131.432 E16.54528
G1 X90.378 Y131.262 E16.57026
G1 X90.122 Y131.144 E16.58667
G1 X89.356 Y130.781 E16.63600
G1 X88.623 Y130.421 E16.68354
G1 X88.301 Y130.243 E16.70495
G1 X87.955 Y130.039 E16.72833
G1 X87.282 Y129.634 E16.77405
G1 X86.587 Y129.202 E16.82168
G1 X86.234 Y128.958 E16.84666
G1 X85.991 Y128.781 E16.86415
G1 X85.336 Y128.294 E16.91166
G1 X84.668 Y127.782 E16.96065
G1 X84.362 Y127.523 E16.98398
G1 X84.165 Y127.348 E16.99932
G1 X83.477 Y126.724 E17.05338
G1 X82.922 Y126.205 E17.09761
G1 X82.674 Y125.949 E17.11836
G1 X82.369 Y125.619 E17.14451
G1 X81.886 Y125.085 E17.18642
G1 X81.311 Y124.431 E17.23711
G1 X81.072 Y124.130 E17.25948
G1 X80.887 Y123.884 E17.27740
G1 X80.344 Y123.149 E17.33059
G1 X79.908 Y122.540 E17.37418
G1 X79.682 Y122.191 E17.39838
G1 X79.538 Y121.955 E17.41447
G1 X79.071 Y121.174 E17.46744
G1 X78.686 Y120.508 E17.51221
G1 X78.495 Y120.139 E17.53640
G1 X78.365 Y119.870 E17.55379
G1 X77.997 Y119.089 E17.60404
G1 X77.667 Y118.363 E17.65046
G1 X77.517 Y117.985 E17.67413
G1 X77.392 Y117.644 E17.69527
G1 X77.113 Y116.861 E17.74365
G1 X76.869 Y116.143 E17.78779
G1 X76.744 Y115.705 E17.81430
G1 X76.653 Y115.354 E17.83540
G1 X76.454 Y114.554 E17.88339
G1 X76.283 Y113.822 E17.92714
G1 X76.214 Y113.447 E17.94933
G1 X76.151 Y113.046 E17.97296
G1 X76.032 Y112.230 E18.02096
G1 X75.933 Y111.478 E18.06511
G1 X75.896 Y111.042 E18.09058
G1 X75.883 Y110.822 E18.10340
G1 X75.837 Y109.899 E18.15719
G1 X75.811 Y109.152 E18.20070
G1 X75.816 Y108.755 E18.22381
G1 X75.832 Y108.347 E18.24757
G1 X75.872 Y107.544 E18.29437
G1 X75.922 Y106.768 E18.33963
G1 X75.970 Y106.342 E18.36458
G1 X76.012 Y106.044 E18.38210
G1 X76.133 Y105.228 E18.43012
G1 X76.266 Y104.407 E18.47852
G1 X76.336 Y104.077 E18.49816
G1 X76.439 Y103.648 E18.52384
G1 X76.643 Y102.833 E18.57274
G1 X76.833 Y102.118 E18.61580
G1 X76.960 Y101.722 E18.64001
G1 X77.065 Y101.420 E18.65862
G1 X77.352 Y100.616 E18.70831
G1 X77.628 Y99.878 E18.75417
G1 X77.766 Y99.555 E18.77461
G1 X77.940 Y99.176 E18.79889
G1 X78.302 Y98.411 E18.84815
G1 X78.636 Y97.731 E18.89224
G1 X78.835 Y97.371 E18.91618
G1 X79.033 Y97.035 E18.93888
G1 X79.428 Y96.377 E18.98355
G1 X79.858 Y95.681 E19.03117
G1 X80.066 Y95.378 E19.05256
G1 X80.269 Y95.099 E19.07265
G1 X80.773 Y94.419 E19.12191
G1 X81.829 Y93.036 E19.22319
G1 X83.514 Y90.764 E19.38784
G1 X85.134 Y88.446 E19.55244
G1 X86.688 Y86.082 E19.71710
G1 X88.174 Y83.676 E19.88170
G1 X89.592 Y81.228 E20.04637
G1 X90.940 Y78.742 E20.21097
G1 X92.216 Y76.218 E20.37559
G1 X93.422 Y73.659 E20.54024
G1 X94.554 Y71.067 E20.70487
G1 X95.780 Y68.009 E20.89664
G1 X95.930 Y67.617 E20.92107
G1 X96.051 Y67.340 E20.93866
G1 X96.064 Y67.313 E20.94040
G1 X96.072 Y67.298 E20.94139
G1 X96.148 Y67.167 E20.95021
G1 X96.310 Y66.911 E20.96784
G1 X96.321 Y66.895 E20.96897
G1 X96.332 Y66.880 E20.97006
G1 X96.420 Y66.772 E20.97816
G1 X96.650 Y66.512 E20.99837
G1 X96.663 Y66.500 E20.99940
G1 F1500.00000 E18.99940
G0 F7200.00000 X97.398 Y67.246
G0 X99.498 Y69.375
G0 X99.526 Y69.403
G0 X99.568 Y69.445
G0 X99.498 Y69.375
;TYPE:WALL-INNER
G1 F1500.000 E20.99940
G1 F1800.00000 X100.502 Y69.375 E21.05784
G1 X100.502 Y88.699 E22.18259
G1 X101.996 Y88.775 E22.26967
G1 X103.976 Y89.069 E22.38618
G1 X105.930 Y89.559 E22.50343
G1 X107.798 Y90.225 E22.61886
G1 X109.616 Y91.086 E22.73595
G1 X111.331 Y92.114 E22.85233
